X:1
T:PETITE SUITE
T:PETITE SUITE
T:Ⅰ En Bateau
T:Claude Debussy(1862-1918) 
T:Ⅱ Cortège
T:Ⅲ Menuet
T:Ⅳ Ballet
C:Claude Debussy(1862-1918)
%%score { ( 1 3 ) | ( 2 4 ) } { ( 5 8 ) | ( 6 7 ) }
L:1/8
Q:3/8=72
M:6/8
K:G
V:1 treble nm="Primo	"
V:3 treble 
V:2 treble 
V:4 treble 
V:5 treble nm="Secondo"
V:8 treble 
V:6 bass 
V:7 bass 
V:1
"^Andantino"!pp! (b6 | g3- gag) | (b6 | g3- gag) | d'6- | d'6- | d'6- |!<(! d'3 (e'3!<)! |!p! g6- | %9
 g3) (e'3 | g6- | g3 a3 | b6-) | b6- | b6- |[Q:3/8=70] b6[Q:3/8=68] |!p![Q:3/8=72] (b6 | g3- gag) | %18
 (b6 |!<(! g3- g[Q:3/8=68]ag!<)! |!mf![Q:3/8=72] [e'g']6) | %21
"_dim." (2:3:2([d'f'][c'e']- [c'e'][ac'][gb]) |!p! (2:3:2(.[fa].[fa]- [fa]).[eg].[fa] | %23
 .[gb].[bd'].[d'f'] .[bd'].[gb].[eg] |!pp! (2:3:2.[fa].[fa]- [fa].[eg].[fa] | %25
 .[gb].[bd'].[d'f'] .[bd'].[gb].[fa] |!>(! (2:3:2(.[eg].[eg]- [eg]).[ce].[Ac]!>)! | z6 | %28
!pp![Q:3/8=76]!>(! z2 z[Q:3/8=80] (a/b/c'/d'/e'/f'/!>)! |[Q:3/8=72] [bg']) z z z2 z || %30
[K:D]"^risoluto" z6 | z6 | z2 z!p![Q:3/8=74]!<(! .G>(EC) |[Q:3/8=76] .B>(GE)[Q:3/8=78] .f.c.A!<)! | %34
[Q:3/8=72] z6 | z6 | z2 z!p![Q:3/8=74]!<(! .G>(EC) | %37
[Q:3/8=76] .B>(GE)[Q:3/8=78] .f.c!f![Q:3/8=60].A!<)! |!p![Q:3/8=80] (d'>c'a c'3- | c'ba c'3- | %40
 c'>)!<(!ba (2:3:2.[a^f']!p!.[c'a']!<)! |!p! c'>(ba)!<(! (2:3:2.[a^f'][c'a']-!<)! | %42
!p! [c'a']>"_dim."(c'f') .a.c'.f | .a>(cf) .A.c.F |!p! .[FB]>(FB) .[DF].[FB].[^Gc] | %45
[Q:3/8=76] ([FB]3[Q:3/8=72] [EA]2) z |!pp![Q:3/8=80] .G>(EG) .E.G.=A | .G>(EG) .E.G.=A | %48
!<(! (2:3:2([GB][Acf]!<)!!p!!>(! [FA]3-!>)! | [FA]3[Q:3/8=76] (2:3:2GF) | %50
!pp![Q:3/8=80] .G>(EG) .E.G.=A | .G>(EG) .E.G.=A | (2:3:2([GB][Acf] [FA]3- | %53
 (2:3:2[FA])!<(!(D FAd | (2:3:2[=ce]!<)!!>(![dfb]!p! [Bd]3-!>)! | (2:3:2[Bd])([GB] [DG][GB][Bd] | %56
!p!!<(! (2:3:2[=ce][dfb]!<)!!p!!>(! [Bd]3-!>)! |!p!!<(! (2:3:2[Bd])([Bd] [dg][gb][bd']!<)! | %58
!f!!f! [d'f']6 | [bd']2 [^gb]- [gb][eg][df]) |!mf![Q:3/8=76] ([df]6 | %61
"_dim." [Bd]2 [^GB]- [GB][EG][DF]) |!p![Q:3/8=74] F6- | F3- F2 A |!p![Q:3/8=72] F6- | F3- F2 A | %66
"^un peu retenu"!pp![Q:3/8=68] .f.e.=c e3- | e=cd e3 | z6 | z6 |!pp![Q:3/8=68] .f'.e'.=c' e'3- | %71
 e'=c'd' e'3 | z6 | z6 |!pp! (=c/!>(!d/e/f/e/d/ c3- | %75
 c/d/e/f/e/d/[Q:3/8=64] =c/d/e/f/g/!>)!!pp!a/) ||[K:G]!pp!"^a tempo"[Q:3/8=72] (b6 | g3- gag) | %78
 (b6 | g3- gag) | d'6- | d'6- | d'6- |!<(! d'3!<)!!p!!>(! (e'3!>)! |!p! g6- | g3) (e'3 | g6- | %87
 g3 a3 | b6-) | b6- |"_dim." b6- | b3 z2 z |!p! (B6 | G3- GAG | B6 | G3- GAG) | %96
"^en retenant peu"!p![Q:3/8=70] [eg]6- |"^à peu" [eg]6 |[Q:3/8=68]"_dim." ([df]3 [ce]3 | %99
 [Ac]3 [GB]3) |!pp![Q:3/8=66] (2:3:2[FA][FA]- [FA]([EG][FA] | [GB][Bd][df] [Bd][GB][EG]) | %102
 (2:3:2[FA][FA]- [FA][EG][FA] | [GB][Bd][df] z2 z | %104
!pp!"^encore plus retenu"[Q:3/8=64] ([gb][bd'][d'f'] [bd'][gb][eg]) | %105
[Q:3/8=60]!8va(! [ge'g']6-[Q:3/8=58] | [ge'g']3[Q:3/8=54] [ec'e']3[Q:3/8=48] | [gd'g']6- | %108
 [gd'g']!8va)! z z !fermata!z2 z |] %109
[K:E][M:4/4]"^Moderato"!p![Q:1/4=92] (g/>a/g- g/f/e/f/) (g/>a/g- g/a/b/d'/) | %110
 (c'/>d'/!<(!c'- c'/b/a/b/ c'/d'/e'/g'/!<)!!p!!>(! f'/d'/c'/a/)!>)! | %111
!p! (g/>a/g- g/f/e/f/)!>(! (g/>a/g- g/f/e/!p!g/)!>)! | %112
!p!!>(! (f/>g/f- f/e/!>)!=d/!p!f/)!p!!>(! (e/>f/e- e/^d/c/!>)!e/) | %113
!pp! ([^Bd]/>[ce]/[Bd]- [Bd]/>[ce]/[Bd]) | ([=Ac]/>[Bd]/[Ac]- [Ac]2) | %115
"_dim." ([G^B]/>[Ac]/[GB]- [GB]2) ([FA]/>[G=B]/[FA]- [FA]2) | %116
!pp!!>(! (g>!>)!!pp!d)!pp!!>(! (g>!>)!!pp!d)!pp! (f>e c/d/e/f/) |"_dim." (d>e d>^B) (c>d c>A) | %118
"_cresc." (G2 A2) .b/.g/.e/.B/ .a/.f/.c/.A/ | G2 A2!<(! .F/.G/.A/.B/ .c/.d/.e/.f/!<)! | %120
!p! (g/>a/g- g/).f/.e/.f/ (g/>a/g- g/).a/.b/.d'/ | %121
 (c'/>d'/!<(!c'- c'/).b/.a/.b/ (c'/d'/e'/g'/!<)!!p!!>(! f'/d'/c'/a/)!>)! | %122
!p! (g/>a/g- g/).f/.e/.f/ (g/>a/g- g/).a/.b/.d'/ | %123
 (c'/>d'/c'-!<(! c'/).b/.a/.b/ (c'd'/!<)!e'/!p!!>(! f'e'/d'/)!>)! | %124
!p! (c'/>d'/c'- c'/).b/.a/.b/!<(! (c'!8va(![b=d']/[c'e']/) ([d'f'][e'g']/!p![f'a']/)!<)! | %125
!p! [=g'b'] z z z/ ([b=d']/ [g'b']) z z z/ ([bd']/ | [=g'b'])!8va)!"_cresc." z z2 z4 | %127
!<(! (!>!f/^d/[I:staff +1]B/F/)[I:staff -1] (!>!f/d/[I:staff +1]B/F/)[I:staff -1] (!>!f/d/[I:staff +1]B/F/)[I:staff -1] (!>!f/d/[I:staff +1]B/F/)!<)! | %128
!f![I:staff -1] (g/>a/g- g/f/e/f/) | (g/a/b/c'/ d'/c'/b/a/) | %130
!ff! (g/>a/g- g/f/e/f/) (g/a/b/c'/ d'e'/f'/ | %131
"^poco rit" g') z[Q:1/4=84] z2[Q:1/4=76] z4[Q:1/4=68] || %132
[K:A][Q:1/4=92]"^a tempo scherzando" z!p!{/f} !>!e- e!tenuto!c- c!tenuto!A- A(!tenuto!F- | %133
!<(! (3F/G/A/B-!<)!!p!!>(! (3B/A/G/F-!>)!!p!!<(! (3F/G/A/B-!<)!!p!!>(! (3B/A/G/E)!>)! | %134
 z!p!{/f} !>!e- e!tenuto!c- c!tenuto!A- A(!tenuto!F- | %135
!<(! (3F/G/A/B-!<)!!p!!>(! (3B/A/G/F-!>)!!p!!<(! (3F/G/A/B-!<)!!p!!>(! (3B/A/G/F)!>)! | %136
 z!p!{/c'} !>!b- b(!tenuto!g-!<(! g(3e/f/g/) (.g!p!.e)!<)! | %137
 z!p!{/c'} !>!b- b(!tenuto!g- g(3e/f/g/) (.g.e) | (^d/>e/d- d(3c/B/c/) (d/>e/d- d(3c/B/c/) | %139
 (^d/>e/!>(!d-[Q:1/4=84] d/4e/4f/4g/4[Q:1/4=80]a/4b/4c'/4^d'/4!>)![Q:1/4=72] e'/>f'/e')[Q:1/4=64] !fermata!z2 | %140
[Q:1/4=92] z!pp!{/f'} !>!e'- e'!tenuto!=c'- c'!tenuto!a- a!tenuto!f | %141
!<(! (3(e/f/g/!<)!g-!p!!>(! g/>f/e/>f/!>)! g4) | %142
 z!pp!{/f'} !>!e'- e'!tenuto!=c'- c'!tenuto!a- a!tenuto!f | %143
!<(! (3(d/e/f/!<)!f-!p!!>(! f/>e/d/>e/!>)! f2 d2) | %144
!p! (3(e/f/=g/[eg]-"_cresc." [eg]/>f/e/>f/) (3(g/a/b/[gb]- [gb]/>a/g/>a/) | %145
 (3(b/^c'/d'/[bd']- [bd']/>c'/b/>c'/) (3(d'/e'/f'/[d'f']- [d'f']/>e'/d'/>!mp!e'/) | %146
!p! (3(^d'/e'/f'/[d'f']-!>(! [d'f']/e'/d'/c'/ | b/^a/^g/f/ e/f/g/a/)!>)! | %148
!p! (3(^d'/!>(!e'/f'/[d'f']- [d'f']/e'/d'/c'/ b/^a/^g/f/ e/^d/c/B/!>)! | %149
!p! ^A4-"^(     )"[Q:1/4=86] _B4)[Q:1/4=90][Q:1/4=82] || %150
[K:Ab][Q:1/4=92] z!pp!{/f'} !>!e'- e'!tenuto!c'- c'!tenuto!a- a(!tenuto!f- | %151
 (3f/g/a/b- (3b/a/g/f- (3f/g/a/b- (3b/a/g/e) | %152
 z!pp!{/f'} !>!e'- e'!tenuto!c'- c'!tenuto!a- a!tenuto!f | %153
[Q:1/4=88] z!ppp!{/f'} !>!e'-[Q:1/4=84] e'!tenuto!c'-[Q:1/4=80] c'!tenuto!a-[Q:1/4=76] a[Q:1/4=50]!tenuto!f || %154
[K:E][Q:1/4=360] x[Q:1/4=92]"^Tempo Ⅰ"!mp! ([eg]/>[fa]/[eg]- [eg]/).f/.e/.f/ (g/>a/g- g/).a/.b/.d'/ | %155
 (c'/>d'/c'- c'/).b/.a/.b/ |!<(! (c'/d'/e'/g'/!<)!!>(! f'/d'/c'/a/)!>)! | %157
!p! (g/>a/g- g/).f/.e/.f/ (g/>a/g- g/).f/.e/.g/ | (f/>g/f- f/).e/.=d/.f/ (e/>f/e- e/).^d/.c/.e/ | %159
!pp! ([^Bd]/>[ce]/[Bd]- [Bd]/>[ce]/[Bd]) ([=Ac]/>[=Bd]/[Ac]- [Ac]2) | %160
!pp!!>(! ([G^B]/>[Ac]/[GB]-!>)!!pp! [GB]2)!pp!!>(! ([FA]/>[G=B]/[FA]-!>)!!pp! [FA]2) | %161
!pp! (g>d) (g>d) (f>e c/d/e/f/) | (d>e d>^B) (c>d c>A) | %163
"_cresc." (G2 A2) .b/.g/.e/.B/ .a/.f/.c/.A/ | (G2 A2)!p!!<(! .F/.G/.A/.B/ .c/.d/.e/.f/!<)! | %165
!mf! (g/>a/g- g/).f/.e/.f/ (g/>a/g- g/).a/.b/.d'/ | %166
 (c'/>d'/c'-!<(! c'/).b/.a/.b/ .c'/.d'/.e'/!<)!.[e'g']/!mf!!>(! .[d'f']/.[bd']/.[ac']/.[fa]/!>)! | %167
!p! (g/>a/g-"_cresc." g/).f/.e/.f/ (g/>a/g- g/).a/.b/.d'/ | %168
 (c'/>d'/c'- c'/).b/.a/.b/ (c'd'/e'/ f'e'/d'/) | %169
 (c'/>d'/c'- c'/).b/.a/.b/ ([ac'][bd']/[c'e']/ [d'f'][e'g']/[f'a']/) | %170
!f!!8va(! ([g'b']/>[a'c'']/[g'b'])!8va)! z/ .a/.g/.a/ .b/.c'/.d'/.e'/ .f'/.e'/.d'/.c'/ | %171
!ff! (b/>c'/b- b/).a/.g/.a/ .b/.a/.g/.a/ .b.c'/.d'/ | %172
"^retenu"!ff![Q:1/4=90] !>![ac'e']4[Q:1/4=88] [ac'e']4- | %173
[Q:1/4=84] [ac'e']2 !>![eac']2[Q:1/4=80] !>![ac'e']2[Q:1/4=76] !>![ac'f']2[Q:1/4=72] | %174
!8va(! [gbg']8 | .[gbg']!8va)! z z2 !fermata!z4 |][K:G][M:3/4]"^Moderato"!p![Q:1/4=92]{/b} !>!a6 | %177
{/b} !>!a6 |!<(!{/b} (a/g/f/g/ a/b/c'/d'/!<)!!p!!>(! c'/b/a/g/)!>)! |!p!{/b} (a2{/g} a4) | %180
{/g} !>!f6 |{/g} !>!f6 |!<(!{/g} (f/e/d/e/ f/g/a/b/!<)!!>(! a/g/f/e/)!>)! | %183
[Q:1/4=86]"^un poco rit."{/g} (f2[Q:1/4=80]{/e} f2[Q:1/4=70] d2) | %184
[Q:1/4=360] x[Q:1/4=104]!p!"^(a tempo)" (a2 e'2) !tenuto!e'2 | (e'/d'/c'/d'/ e'4) | %186
 (bc'd'b a/b/a/=f/ | a6) |!mf! (a2 e'2) !tenuto!e'2 | %189
!<(! (d'/c'/b/c'/ d'/e'/f'/g'/ a'/g'/f'/e'/)!<)! |!f! e'2{/[d'f']} !>![c'e']2{/[d'f']} !>![c'e']2 | %191
 [bd']2"_dim." z2 .g.b |!p! (c'2 e'2 g'2 | f'/e'/d'/e'/ f'4) |!pp! (b2- b/d'/e'/f'/ a'/f'/e'/d'/) | %195
 (e'/d'/c'/d'/ e'4) |!p!!p! z!<(!!<(! ((a/b/ c'))((c'/e'/ ^d'/^c'/!p!!p!b))!<)!!<)! | %197
!p!!p! z!<(!!<(! ((a/b/ =c'))((c'/e'/ ^d'/^c'/!p!!p!b))!<)!!<)! | z2"_dim." (^d'/^c'/b- b2) | %199
!p![Q:1/4=100] (^d'/^c'/b-[Q:1/4=96] b2)[Q:1/4=92] z2 | %200
!pp![Q:1/4=100] (.[egb].[Beg] .[egb].[Beg] .[egb].[Beg]) | %201
 (.[egb].[Beg] .[egb].[Beg] .[egb].[Beg]) | (.[dfa].[Adf] .[dfa].[Adf] .[dfa].[Adf]) | %203
 (.[ceg].[Gce]"_cresc." .[ceg].[Gce] .[cea].[Ace]) | (.[ceg].[Gce] .[ceg].[Gce]) (e/f/e/c/) | %205
!p! (g/a/g/e/) g2- g/(a/g/e/) | %206
[Q:1/4=96] !arpeggio!!>![dg]!arpeggio!!>![dg][Q:1/4=92] z2[Q:1/4=88] z2 ||[K:D][Q:1/4=100] z6 | %208
 z6 | z6 |[Q:1/4=98] z6[Q:1/4=96][Q:1/4=94] |!p![Q:1/4=100] (G/A/B/c/ d2- dc/B/ | %212
 c/d/B/c/ A!>!B- BA) |!<(! (G/A/B) (!>!B2- Bd/!p!c/!<)! |!p! G/!<(!A/B- B2) (Bd/!p!c/!<)! | %215
!pp! [cf]6) |!mf!!>(! [Bf]6!>)! |!pp! [cf]6 |!mf!!>(! [Bf]4- [Bf]!p!B!>)! | %219
!mf! (a(3g/a/g/ f(3e/f/e/ d/e/f/d/) |"_dim." (f(3e/f/e/ d(3c/d/c/ B/c/d/B/) |!p! A6 | %222
"_cresc." [GA]3 (A/B/ c/d/e/f/) |!f! (g/a/b/c'/ d'2- d'c'/b/) | (c'/d'/b/c'/ ab- ba) | %225
!<(! (g/a/b) !>!b2- b(d'/!f!c'/)!<)! |!f!!<(! (g/a/b) !>!b2- b(d'/!f!c'/)!<)! | %227
!pp!!8va(! (f'/d'/f/d'/) (f'/d'/f/d'/) (f'/d'/f/d'/) | (f'/d'/f/d'/) (f'/d'/f/d'/) (a'/f'/a/f'/) | %229
!p! (f'/d'/f/d'/) (f'/d'/f/d'/) (f'/d'/f/d'/) | (f'/d'/f/d'/) (f'/d'/f/d'/) (a'/e'/a/e'/) | %231
!p! (a'/=f'/a/f'/) (a'/f'/a/f'/) (a'/f'/a/f'/) | (a'/=f'/a/f'/) (a'/f'/a/f'/) (^g'/e'/^g/e'/) | %233
 (a'/=f'/"_dim."a/f'/) (a'/f'/a/f'/) (a'/f'/a/f'/) | %234
"^(rall.)"[Q:1/4=90] (a'/=f'/a/f'/)[Q:1/4=80] (a'/f'/a/f'/)[Q:1/4=70] z2!8va)![Q:1/4=60] || %235
[K:G]"^(a tempo)"!p![Q:1/4=104] a2 z2 z2 | (e'/d'/c'/d'/ e'2) z2 | z2 (d'b) z (a/=f/ | a4) z2 | %239
 z6 | z2 d/e/f/g/ a/g/f/e/ | e2{/[d'f']} [c'e']2{/[d'f']} [c'e']2 | [bd']2 z2 z2 | %243
!<(! (c2 e2 g2!<)! |!p!!>(! f/e/d/e/ f4)!>)! |!pp! (B2- B/d/e/f/ a/f/e/d/ | e/d/c/d/ e4) | %247
!pp!!<(! z (A/B/ c)(c/e/ ^d/^c/B)!<)! |!p!!<(! z (A/B/ c)(c/e/ ^d/^c/!mp!B)!<)! | %249
"_dim." z2 (^d/^c/B- B2) |!p![Q:1/4=98] (^d/^c/B-[Q:1/4=96] B) z[Q:1/4=93] z .f | %251
!p![Q:1/4=100] [egb] z z2 [egb] z | [dgb] z z2 [dgb] z | [dfa] z z2 z2 | %254
!p!"_dim." (fgaf e/f/e/c/) |"_dim." .g.e/.e/ .e(g- ge) |!8va(! .g'.e'/.e'/ .e'(g'- g'e') | %257
!pp! [gd'g']6 | [fd'f']6!8va)! | z6 | z6 | z6 |[Q:1/4=98] z2[Q:1/4=96] z2[Q:1/4=94] [Ad] z | %263
 [dg] z !fermata!z2 z2 |][K:D][M:2/4]"^Allegro giusto"[Q:1/4=98] z4 | z!p! .[da] z .[Bda] | %266
 z .[da] z .[Bda] | z .[fa] z .[ea] | z .[da] z .[ca] | z2 z/ [be']/ [gb] | z2 z/ [be']/ [gb] | %271
!p!!<(! z (g/!p!b/)!<)!!p!!<(! z (g/!p!b/)!<)! |!p!!<(! z g/!p!b/!<)!!p!!<(! b/b/e'/g'/!<)! | %273
!mp! z3/2 (B/ !>!e>)(B | !>!d/).d/.d/.B/ !>!e2 | !>!f/.f/.f/.c/ !>!e/.e/.e/.B/ | %276
 !>!d/.d/.A/.B/ c2 |!p!!<(! (B/c/d- d/e/f/!mp!^g/)!<)! |!p!!<(! (B/c/d- d/e/f/!mp!^g/)!<)! | %279
!p! .[^gc']"_dim.".[fa]/.[fa]/ .[fa].[df]/.[Bd]/ |[Q:1/4=94] .[FB]!pp!.[EA][Q:1/4=90] z2 | %281
!p![Q:1/4=98] z .[egb] z .[egb] | z .[gbd'] z .[gbd'] | z .[egb] z .[egb] | z .[egb] z .[gbd'] | %285
 z4 | z4 | z4 | z4 |!p! (b/c'/d'- d'/e'/f'/g'/ | f'/e'/d'- d'/c'/b/a/) | (g/a/b- b/a/g- | %292
 g/a/b- b/c'/d'/e'/) |!p!"_cresc."!8va(! (=f'/g'/a') (f'/g'/a') | (=f'/g'/a') (f'/g'/a')!8va)! | %295
 (=f/g/a) (f/g/a) | (=f/g/a) (f/g/[Q:1/4=90]!>!a) |!f![Q:1/4=98] !>!d'>b !>!e'>b | %298
 !>!d'/.d'/.d'/.b/ !>!e'2 | !>!f'/.f'/.f'/.c'/ !>!e'/.e'/.e'/.b/ | !>!d'/.d'/.a/.b/ c'2 | %301
!mf! b/b/f/g/ a/b/b | b/b/f/g/ a/b/b | z2!f! !>![bf']2 | !>![bf']2 !>![bf']2 | %305
 (!>!e'd') z (d'/c'/ | !>!e'd'- d'2) | z4 | z4 |[Q:1/4=88] z4 | z4 || %311
[K:G][M:3/8]"^Tempo di Valse""^rit."!p![Q:3/8=68] (ED)[Q:3/8=64](D/^C/ | %312
[Q:3/8=60] .E)[Q:3/8=58] !tenuto!D2[Q:3/8=56] |[Q:3/8=68]"^a tempo"!p! (ED)(D/^C/ | %314
 .E) !tenuto!D2 |"_cresc." (E/G/G)(G/B/) | (G/B/B)(B/d/) | (c/e/e)(e/g/) | (c/e/e)(e/!mp!g/) | %319
!p! (e'd')(d'/^c'/ | .e') !tenuto!d'2 | (e'd')(d'/^c'/ | .e') !tenuto!d'2 |!<(! z3 | z3!<)! | %325
!mf! z .[=fae'].[fad'] | z .[ege'].[egc'] | z3 | z3 |!mf! z .[=fae'].[fad'] | %330
[Q:3/8=66] z[Q:3/8=64] .[ege'][Q:3/8=62].[egc'] |!p![Q:3/8=68] (B2 A | B^d^c- | cB/^c/^d- | dfe) | %335
"_cresc." (^g2 f | a^gb- | ba^c'- | c'2 b) |!mf! (f'2 e' | b3) | (f'2 =e' | ^c'2 b- | %343
"_dim." b/a/f/d/=e/f/) |[Q:3/8=66] z3[Q:3/8=64][Q:3/8=62] |[Q:3/8=68]"_dim." z2 F | A^ce | %347
!p! z2 F | A^ce |!p! (^g3 | f3) | (^g3 | f3) |!pp! [^GB^g]3- | [GBg]3 | [^GB^g]3- | [^GB^g]3 | %357
!pp! [=gb]3- |"^un poco rit."[Q:3/8=66] [=gb]3 |[Q:3/8=64] [=gb]3- | %360
[Q:3/8=62] [=gb]3[Q:3/8=60][Q:3/8=58] |!p![Q:3/8=68]"^a tempo" (e'd'd'/^c'/ | e' d'2) | %363
 (e'd'd'/^c'/ | e' d'2) |!<(! z3 |[Q:3/8=66] z3!<)![Q:3/8=64][Q:3/8=62] |!pp! !>!b2 z | %368
[Q:3/8=66] z3[Q:3/8=62][Q:3/8=58][Q:3/8=54] |!pp! !tenuto!b2 z || %370
[K:D][M:2/4]"^Tempo Ⅰ"[Q:1/4=98]!p![I:staff +1] ([EGB]/d/[I:staff -1][eb])[I:staff +1] ([EGB]/d/[I:staff -1][eb]) | %371
"_cresc."[I:staff +1] ([EGB]/d/[I:staff -1][eb])[I:staff +1] ([EGB]/d/[I:staff -1][eb]) | %372
[I:staff +1] ([EGB]/c/[I:staff -1][eb])[I:staff +1] ([EGB]/c/[I:staff -1][eb]) | %373
[I:staff +1] ([EGB]/c/[I:staff -1][eb])[I:staff +1] ([EGB]/c/!mp![Q:1/4=90][I:staff -1][ea]) | %374
[Q:1/4=98] z!p! .[da] z .[Bda] | z .[da] z .[Bda] | z .[fa] z .[ea] | z .[da] z .[ca] | %378
 z2 z/ [be']/ [gb] | z2 z/ [be']/ [gb] |!p!!<(! z (g/!p!b/)!<)!!p!!<(! z (g/!p!b/)!<)! | %381
!p!!<(! z g/!p!b/!<)!!p!!<(! b/b/e'/g'/!<)! |!mp! z3/2 (B/ !>!e>)(B | !>!d/).d/.d/.B/ !>!e2 | %384
 !>!f/.f/.f/.c/ !>!e/.e/.e/.B/ | !>!d/.d/.A/.B/ c2 |!p!!<(! (B/c/d- d/e/f/!mp!^g/)!<)! | %387
!p!!<(! (B/c/d- d/e/f/!mp!^g/)!<)! |!p! .[^gc']"_dim.".[fa]/.[fa]/ .[fa].[df]/.[Bd]/ | %389
[Q:1/4=94] .[FB]!pp!.[EA][Q:1/4=90] z2 |!p![Q:1/4=98] z .[egb] z .[egb] | z .[gbd'] z .[gbd'] | %392
 z .[egb] z .[egb] | z .[egb] z .[gbd'] | z4 | z4 | z4 | z4 |!p! (b/c'/d'- d'/e'/f'/g'/ | %399
 f'/e'/d'- d'/c'/b/a/) | (g/a/b- b/a/g- | g/a/b- b/c'/d'/e'/) | %402
!p!!8va(!"_cresc." (=f'/g'/a') (f'/g'/a') | (=f'/g'/a') (f'/g'/a')!8va)! | (=f/g/a) (f/g/a) | %405
 (=f/g/a) (f/g/!>!a) ||[M:3/8]"^Mouvt de Valse à un temps"[Q:3/8=68]!f! (baa/^g/) | (baa/^g/) | %408
 (baa/^g/) | (b a2) | z !>![ac'f'] z | z !>![gbe'] z | z !>![fad'] z | z z (d | %414
!p![Q:3/8=66] g2) (e | a2) (d |[Q:3/8=64] gge |[Q:3/8=62] a3)[Q:3/8=60][Q:3/8=58] | %418
!p![Q:3/8=68] !>![dfb].[dfb].[Bdf] | !>![=cea].[cea].[Ace] |!p!"_cresc." !>![dfb].[dfb].[Bdf] | %421
 !>![=cea].[cea].[Ace] |!f! !>![dfb].[dfb].[Bdf] | !>![^cea].[cea].[Ace] | %424
!f! !>![dfb]!>![dfb]!>![Bdf] | !>![cea]!>![Beb]!>![cec'] |!ff! (e'd')(d'/c'/) | (e'd')(d'/c'/) | %428
 (e'd')(d'/e'/) |[Q:3/8=64] [ad'f'][ad'f'] z | z[Q:3/8=60] [ad'f']2 | [ad'f']3- | %432
 [ad'f']2 !fermata!z |] %433
V:2
!ped! z2 z!pp! .[Bd] z z!ped-up! |!ped! z2 z .[Be] z z!ped-up! |!ped! z2 z .[Bd] z z!ped-up! | %3
!ped! z2 z .[Be] z z!ped-up! |!ped! z2 z .[=FA] z z!ped-up! |!ped! z2 z .[=fa] z z!ped-up! | %6
!ped! z2 z .[=FA] z z!ped-up! |!ped! z2 z B3!ped-up! |!p!!ped! [ce]6- | %9
 [ce]3!ped-up!!ped! .G.G.E!ped-up! |!ped! G2 z z2 z | z2 z!ped-up!!ped! [Ac]3!ped-up! | %12
!ped! z2 z!p! .[B^df].[Bdf].[FBd] | z2 z .[B^df].[Bdf].[FBd] | %14
 .[B^df].[Bdf].[FBd] .[Bdf].[Bdf].[FBd] | [B^df]6!ped-up! |[K:bass] (B,6 | G,3- G,A,G,) | (B,6 | %19
 G,3- G,A,G, |[K:treble]!ped! G6-!ped-up! |!ped! G3) GAB!ped-up! |!ped! (c6!ped-up! | %23
!ped! B6)!ped-up! |!ped! (c6!ped-up! |!ped! B6)!ped-up! | c3 z2 z | z6 | %28
!ped! (F/A/B/c/d/e/ f3)!ped-up! | [dg] z z z2 z ||[K:D]!f! (D>C)A, (!>!C3- | CB,A,) (!>!C3- | %32
 CB,A,) E z A, | G z C .c.E.G |!f! (D>C)A, (!>!C3- | CB,A,) (!>!C3- | CB,A,) E z A, | %37
 G z C .c.E.G |!ped! f6!ped-up! |!ped! =f6!ped-up! |!ped! e3!ped-up! (2:3:2.c.^f | %41
!ped! e3!ped-up! (2:3:2.c^f | f>(fa) .c.f.A | .c>(FA) .C.F.A, | .=D>(B,D) .B,.D.E | (D3 C2) z | %46
[K:bass] .G,>(A,^A,) .B,.=C.^C | .G,>(A,^A,) .B,.=C.^C |[K:treble] (C3 D>)(E!pp!D) | CDB, [=C^D]3 | %50
[K:bass] .G,>(A,^A,) .B,.=C.^C | .G,>(A,^A,) .B,.=C.^C |[K:treble]!ped! (C3!ped-up!!ped! D2) z | %53
 (2:3:2z!ped-up!!ped! (F, A,DF)!ped-up! |!ped! (F3!ped-up! G2) z | (2:3:2z!ped! (D B,DG)!ped-up! | %56
!ped! (F3!ped-up!!ped! G2) z | z2!ped-up! z!ped! Bdg!ped-up! |!ped! (f6-!ped-up! | %59
!ped! f2 e d2 B)!ped-up! |!ped! (A^GE G3-!ped-up! |!ped! GFE D) z z!ped-up! | %62
!ped! (DCA, C3-!ped-up! |!ped! CB,A, C3)!ped-up! |!ped! (DCA, C3-!ped-up! | %65
!ped! CB,A, C3)!ped-up! |!ped! [=CF]6- | [CF]6!ped-up! | z6 | z6 |!ped! [=CF]6- | [CF]6!ped-up! | %72
 z6 | z6 |!ped! z6!ped-up! |!ped! z6!ped-up! ||[K:G]!ped! (B/c/d/e/d/c/ B3-!ped-up! | %77
!ped! B/c/d/e/d/c/ B3-!ped-up! |!ped! B/c/d/e/d/c/ B3-!ped-up! |!ped! B/c/d/e/d/c/ BAG)!ped-up! | %80
!ped! (=F/G/A/B/A/G/ F3)!ped-up! |!ped! (=f/g/a/b/a/g/ f3)!ped-up! | %82
!ped! (=F/G/A/B/A/G/ F3)!ped-up! |!ped! z6!ped-up! | z2 z!pp! .c.B.G | .B>(AG)!ped! z2 z!ped-up! | %86
 z2 z!pp! .c.B.G | .B>(AG)!ped! z2 z!ped-up! |!ped! z2 z .[B^df].[Bdf].[FBd] | %89
 z2 z .[B^df].[Bdf].[FBd] |!pp! .[B^df].[Bdf].[FBd] .[Bdf].[Bdf].[FBd] | [B^df]6!ped-up! | %92
!ped! D6!ped-up! |!ped! ^D6!ped-up! |!ped! =D6!ped-up! |!ped! ^D6!ped-up! |!ped! E6- | %97
 E3 z2 z!ped-up! |!ped! z6!ped-up! |!ped! z6!ped-up! |!ped! z6!ped-up! |!ped! z6!ped-up! | %102
!ped! z6!ped-up! |!ped! z2 z [Bd][GB][EG]!ped-up! |!ped! G6!ped-up! |!ped! cBG B3-!ped-up! | %106
!ped! (2:3:2BG (2:3:2z A!ped-up! |!ped! B6- | B!ped-up! z z !fermata!z2 z |] %109
[K:E][M:4/4] (e/>f/e- e/d/c/d/) (e/>f/e- e/f/g/b/) | (a/>b/a- a/g/f/g/ a/b/c'/e'/ d'/b/a/f/) | %111
 (e/>f/e- e/d/c/d/) (e/>f/e- e/=d/c/e/) | (=d/>e/d- d/c/B/d/) (c/>^d/c- c/B/^A/c/) | %113
!>(! (!>!G>!>)!D)!>(! (!>!G>!>)!D) | (F>E C/D/E/F/) | (D>E D>^B,) (C>D C>A,) | %116
 ([^Bd]/>[ce]/[Bd]/) z/ ([Bd]/>[ce]/[Bd]/) z/ ([Ac]/>[=Bd]/[Ac]/) z/ z2 | %117
 ([G^B]/>[Ac]/[GB]/) z/ z2 ([FA]/>[G=B]/[FA]/) z/ z2 | z4 G2 F2 | z4 .D/.E/.F/.G/ .A/.B/.c/.d/ | %120
 (e/>f/e- e/).d/.c/.d/ (e/>f/e- e/).f/.g/.b/ | (a/>b/a- a/).g/.f/.g/ (a/b/c'/e'/ d'/b/a/f/) | %122
 (e/>f/e- e/).d/.c/.d/ (e/>f/e- e/).f/.g/.b/ | (a/>b/a- a/).g/.f/.g/ (ab/c'/ d'c'/b/) | %124
 (a/>b/a- a/).g/.f/.g/ a z (A/F/=D/A,/) | (B/=G/=D/B,/) (B/G/D/B,/) (B/G/D/B,/) (B/G/D/B,/) | %126
 (=d/B/=G/=D/) (d/B/G/D/) (d/B/G/D/) (d/B/G/D/) | x8 |"^brillant" (e/>f/e- e/d/c/d/) | %129
 (e/f/g/a/ b/a/g/f/) | (e/>f/e- e/d/c/d/) (e/f/g/a/ bc'/d'/ | e') z z2 z4 || %132
[K:A] z !>![Ac-] [Ac]!tenuto![EA]- [EA]!tenuto![CE]- [CE]!tenuto![A,C] | %133
 ([A,D][DF]- [DF][A,D]- [A,D][DF]- [DF][G,C]) | %134
 z !>![Ac-] [Ac]!tenuto![EA]- [EA]!tenuto![CE]- [CE]!tenuto![A,C] | %135
 ([A,C][A,^D]- [A,D][A,C]- [A,C][A,D]- [A,D][A,C]) | %136
 z !>![eg-] [eg]!tenuto![Be]- [Be](.[Gc].[GB].[G^A]) | %137
 z !>![eg-] [eg]!tenuto![Be]- [Be](.[Gc].[GB].[G^A]) | (B/>c/B- B(3=A/G/A/) (B/>c/B- B(3A/G/A/) | %139
 (B/>c/B- B2) [GB] z !fermata!z2 | %140
!ped! z !>![a=c'-] [ac']!tenuto![ea]- [ea]!tenuto![=ce]- [ce]!tenuto![Ac]!ped-up! | %141
!ped! [Gd][Bd]- [Bd]2- [Bd]4!ped-up! | %142
!ped! z !>![a=c'-] [ac']!tenuto![ea]- [ea]!tenuto![=ce]- [ce]!tenuto![Ac]!ped-up! | %143
!ped! [=GB][GB]- [GB]2- [GB]4!ped-up! | %144
 (3(=c/d/e/) z z3/4 (d/<c/d/4) (3(e/f/=g/) z z3/4 (f/<e/f/4) | %145
 (3(=g/^a/b/) z z3/4 (a/<g/a/4) (3(b/c'/d'/) z z3/4 (c'/<b/c'/4) | (3(b/c'/^d'/) z z/ (c'/b/^a/ | %147
 ^g/f/e/^d/ c/d/e/f/) | (3(b/c'/^d'/) z z/ (c'/b/^a/ ^g/f/e/^d/ c/B/^A/G/ | %149
!ped! ^^F4-"^(     )" =G4)!ped-up! || %150
[K:Ab] z !>![ac'-] [ac']!tenuto![ea]- [ea]!tenuto![ce]- [ce]!tenuto![Ac] | %151
 ([Ad][df]- [df][Ad]- [Ad][df]- [df][Gc]) | %152
 z !>![ac'-] [ac']!tenuto![ea]- [ea]!tenuto![ce]- [ce]!tenuto![Ac] | %153
 z !>![ac'-] [ac']!tenuto![ea]- [ea]!tenuto![ce]- [ce]!tenuto![Ac] || %154
[K:E] x [GB] z z/ .d/.c/.d/ (e/>f/e- e/).f/.g/.b/ | (a/>b/a- a/).g/.f/.g/ | %156
 (a/b/c'/e'/ d'/c'/a/f/) | (e/>f/e- e/).d/.c/.d/ (e/>f/e- e/).=d/.c/.e/ | %158
 (=d/>e/d- d/).c/.B/.d/ (c/>^d/c- c/).B/.^A/.c/ | %159
!ped! (G>D) (G>D)!ped-up!!ped! (F>E C/D/E/F/)!ped-up! | %160
!ped! (D>E D>^B,)!ped-up!!pp!!ped! (C>D C>A,)!ped-up! | %161
!pp!!ped! ([^Bd]/>[ce]/[Bd]- [Bd]/>[ce]/[Bd])!ped-up!!ped! ([=Ac]/>[=Bd]/[Ac]- [Ac]2)!ped-up! | %162
!ped! ([G^B]/>[Ac]/[GB]- [GB]2)!ped-up!!ped! ([FA]/>[G=B]/[FA]- [FA]2)!ped-up! | z4 G2 F2 | %164
 z4 .D/.E/.F/.G/ .A/.B/.c/.d/ | (e/>f/e- e/).d/.c/.d/ (e/>f/e- e/).f/.g/.b/ | %166
 (a/>b/a- a/).g/.f/.g/ .a/.b/ z .A/.B/.c/.d/ | (e/>f/e- e/).d/.c/.d/ (e/>f/e- e/).f/.g/.b/ | %168
 (a/>b/a- a/).g/.f/.g/ (ab/c'/ d'c'/b/) | (a/>b/a- a/).g/.f/.g/ z2 B2 | %170
 ([gb]/>[ac']/[gb]- [gb]/).f/.e/.f/ .g/.a/.b/.c'/ .d'/.c'/.b/.a/ | %171
 (g/>a/g- g/).f/.e/.f/ .g/.f/.e/.f/ .g.a/.b/ | z2{/f} [Ace]2 z2{/f} [Ace]2- | %173
 [Ace]2 !>![Ac]2 !>![Ace]2 !>![Acd]2 |!ped! [GBe]8!ped-up! | .[GBe] z z2 !fermata!z4 |] %176
[K:G][M:3/4]{/d} !>!c6 |{/d} !>!c6 |{/d} (c/B/A/B/ c/d/e/f/ e/d/c/B/) |{/d} (c2{/B} c4) | %180
{/B} !>!A6 |{/B} !>!A6 | (A/G/F/G/ A/B/c/d/ c/B/A/G/) |{/B} (A2{/G} A2 F2) | %184
!ped! x/x/ !arpeggio![Ace]!ped-up! z z2!ped! !arpeggio![ce] z!ped-up!!ped! | %185
 !arpeggio![eg]!ped-up! z z2!ped! !arpeggio![eg] z!ped-up!!ped! | %186
 !arpeggio![dg]!ped-up! z z2!ped! !arpeggio![d=f] z!ped-up!!ped! | %187
 !arpeggio![ce] z!ped-up! z2 z2!ped! | !arpeggio![Ace] z!ped-up! z2 (F/A/c/e/)!ped! | %189
 !arpeggio![GBd]!ped-up! z z2 (E/G/B/d/)!ped! | %190
 !arpeggio![Ace]!ped-up! z{/[df]} [ce]2{/[df]} [ce]2 | [Bd]2 z2 z2 | %192
!p!!ped! (g/f/e/f/ gfge)!ped-up! |!ped! (f/e/d/e/ fefd)!ped-up! | %194
!pp!!ped! (f/e/d/e/ fefd)!ped-up! |!p!!ped! (e/d/c/d/ edec)!ped-up! | ((e/d/c/d/ ec B^d)) | %197
 ((e/=d/c/d/ ec B^d)) | (f^d Bd ^ge) | (f^d- d) z z .f | z2!ped! !arpeggio![EGB] z!ped-up! z2 | %201
 z2!ped! !arpeggio![DGB] z!ped-up! z2 | z2!ped! !arpeggio![DFA] z!ped! [CEA] z | %203
!pp!!pp! [CE]4 (E/F/E/C/ | E4)!ped! !arpeggio![Ac]!ped-up! z!ped! | %205
 !arpeggio![Ace]!ped-up! z z2!ped! !arpeggio![Ace] z!ped-up!!ped! | %206
 !arpeggio!!>![GB]!ped-up!!ped!!arpeggio!!>![GB]!ped-up! z2 z2 ||[K:D] z6 | z6 | z6 | z6 | %211
 (F/E/D/C/ B,C/D/ EF/G/ | GF/^E/ F2) F2 | (F2 =E3) E | F2 E2 E2 | %215
!pp! (E/A/E- E/).A/.E/.A/ (E/A/).E/.C/ |!mf! (^D/!>(!E/F/^G/ F/G/F/E/ D2)!>)! | %217
!pp! (E/A/E- E/).A/.E/.A/ (E/A/).E/.C/ |!mf! (^D/!>(!E/F/=G/ F/G/F/E/ D2)!>)! | B6 | G6 | %221
 (D/G/D- D/).G/.D/.G/ (D/G/D/B,/) | (C/D/E/F/ E/F/G- G2) | (G/A/B/c/ d2 dc/B/) | %224
 (c/d/B/c/ AB- BA) | (G/A/B) !>!B2 z (d/c/) | (G/A/B) !>!B2 z (d/c/) | .d.B/.B/ .B.d .d.B/.B/ | %228
 .B.d .d.B c2 |!p! .d.B/.B/ .B.d .d.B/.B/ | .B.d .d.B =c2 |!pp! .=f.d/.d/ .d.f .f.d/.d/ | %232
 .d.=f .f.d e2 | [=c=f]2 z2 z2 | z2 z2!ppp!!ppp! .d.=f ||[K:G] (A2 e2) e2 | (e/d/c/d/ e4) | %237
 (Bc dB A/B/A/=F/ | A6) |!p! (A2 e2) !>!e2 | d/c/B/c/ z2 z2 | z2{/[df]} [ce]2{/[df]} [ce]2 | %242
 [Bd]2 z2 z2 | (G/F/E/F/ GF GE) | (F/E/D/E/ FE FD) | (F/E/D/E/ FE FD) | (E/D/C/D/ ED EC) | %247
 (E/D/C/D/ EC B,^D) | (E/=D/C/D/ EC B,^D) | (F^DB,D^GE) | .[FB].[^DF] z .F.B z | %251
!ped!!p! .E2!ped-up! .B2!ped! .B2!ped-up! |!ped! (B/A/!ped-up!G/A/ B4)!ped!!ped-up! | %253
!ped! (F!ped-up!GAF) (E/F/E/C/) | d4 c2 | e z x4 | [ce]6 | (G2 d2) .d2 | (d/c/B/c/ d4) | %259
!ppp! (G2 d2) .d2 | (d/c/B/c/ d4- | .d)!pppp!.c .B.c (d2- | d2 B2)!ped! [DG]!ped-up! z | %263
 G z !fermata!z2 z2 |][K:D][M:2/4] z4 | z .[FA] z .[GA] | z .[FA] z .[GA] | z .[Ac] z .[GB] | %268
 z .[FA] z .[FA] | z2 z/ [ce]/ [ce] | z2 z/ [ce]/ [ce] | !>!d/.d/ z !>!d/.d/ z | !>!d/.d/ z z2 | %273
!mp! z .[FAB] z .[GAc] | z .[FAB] z .[GAc] | z .[Ac] z .[GB] | z .[DF] z .[FA] | %277
 (B,/C/D- D/E/F/^G/) | (B,/C/D- D/E/F/^G/) | .[ce].[Ac]/.[Ac]/ .[Ac].B/.F/ | .D.C z2 | %281
 .[EGB] z .[EGB] z | .[GBd] z .[GBd] z | .[EGB] z .[EGB] z | .[EGB] z .[GBd] z | %285
!p! (=F/G/A- A/B/=c/d/ | =c/B/A- A/G/=F/E/) | (D/E/=F- F/E/D- | D/E/=F- F/G/A/_B/) | %289
 (B/c/d- d/e/f/g/ | f/e/d- d/c/B/A/) | (G/A/B- B/A/G- | G/A/B- B/c/d/e/) | (=f/g/a) (f/g/a) | %294
 (=f/g/a) (f/g/a) | (=F/G/A) (F/G/A) | (=F/G/A) (F/G/!>!A) | !>!d>B !>!e>B | !>!d/.d/.d/.B/ !>!e2 | %299
 !>!f/.f/.f/.c/ !>!e/.e/.e/.B/ | !>!d/.d/.A/.B/ c2 | B/B/F/G/ A/B/B | B/B/F/G/ A/B/B | z2 !>!f2 | %304
 !>!f2 !>!f2 | !>!ed z (d/c/ | !>!ed- d2) | z4 | z4 | z4 | z4 ||[K:G][M:3/8] z3 | z3 | z3 | z3 | %315
 z3 | z3 | ([EG][GB][Ac]) | ([EG][GB][Ac]) | (ed)(d/^c/ | .e) !tenuto!d2 | (ed)(d/^c/ | %322
 .e) !tenuto!d2 |!p! (AGG/F/ | AG/A/_B) |!mf! (=B2 A | Bdc) |!p!!<(! (AGG/F/ | AG/A/_B)!<)! | %329
!mf! (=B2 A | Bdc) | (B,2"^très expressif" A, | B,^D^C- | CB,/^C/^D- | DFE) | (^G2 F | A^GB- | %337
 BA^c- | c2 B) | (f2 e | B3) | (f2 =e | ^c2 B) | F2 A | (B/A/F/D/E/F/) | E2 z | z3 | E2 z | z3 | %349
 [^C-E]3 | [C^D]3 | [^C-E]3 | [C^D]3 | (FE)(E/^D/ | F E2) | (FE)(E/^D/ | F E2) |!ped! [GB]3- | %358
 [GB]3!ped-up! |!ped! [GB]3- | [GB]3!ped-up! | (edd/^c/ | e d2) | (edd/^c/ | e d2) | %365
!p! (E/G/G)(G/B/) | (G/B/B)(B/!p!d/) | z3 |!p! (G/!<(!B/B)(B/!p!d/)!<)! | z3 ||[K:D][M:2/4] x4 | %371
!p! x4 | x4 | x4 | z .[FA] z .[GA] | z .[FA] z .[GA] | z .[Ac] z .[GB] | z .[FA] z .[FA] | %378
 z2 z/ [ce]/ [ce] | z2 z/ [ce]/ [ce] | !>!d/.d/ z !>!d/.d/ z | !>!d/.d/ z z2 | %382
!mp! z .[FAB] z .[GAc] | z .[FAB] z .[GAc] | z .[Ac] z .[GB] | z .[DF] z .[FA] | %386
 (B,/C/D- D/E/F/^G/) | (B,/C/D- D/E/F/^G/) | .[ce].[Ac]/.[Ac]/ .[Ac].B/.F/ | .D.C z2 | %390
 .[EGB] z .[EGB] z | .[GBd] z .[GBd] z | .[EGB] z .[EGB] z | .[EGB] z .[GBd] z | %394
!p! (=F/G/A- A/B/=c/d/ | =c/B/A- A/G/=F/E/) | (D/E/=F- F/E/D- | D/E/=F- F/G/A/_B/) | %398
 (B/c/d- d/e/f/g/ | f/e/d- d/c/B/A/) | (G/A/B- B/A/G- | G/A/B- B/c/d/e/) | (=f/g/a) (f/g/a) | %403
 (=f/g/a) (f/g/a) | (=F/G/A) (F/G/A) | (=F/G/A) (F/G/!>!A) ||[M:3/8] (BAA/^G/) | (BAA/^G/) | %408
 (BAA/^G/) | (B A2) | z!ped! !>![cf]!ped-up! z | z!ped! !>![Be]!ped-up! z | %412
 z!ped! !>![Ad]!ped-up! z | z/ (D/E/F/G/A/) | B3 | =c3 | B3 | =c3 | z!ped! [FB]!ped-up! z | %419
 z!ped! [EA]!ped-up! z | z!ped! [FB]!ped-up! z | z!ped! [EA]!ped-up! z | z [GB] z | z [EA] z | %424
 z [GB] z | z [EA] z | (ed)(d/c/) | (ed)(d/c/) | (ed)(d/e/) | [Ad][Ad] z | z [Ad]2 | [Ad]3- | %432
 [Ad]2 !fermata!z |] %433
V:3
 x6 | x6 | x6 | x6 | x6 | x6 | x6 | x6 | x6 | x6 | x6 | x6 | x6 | x6 | x6 | x6 | x6 | x6 | x6 | %19
 x6 | x6 | x6 | x6 | x6 | x6 | x6 | x6 | x6 | x6 | x6 ||[K:D] x6 | x6 | x6 | x6 | x6 | x6 | x6 | %37
 x6 | x6 | x6 | x6 | x6 | x6 | x6 | x6 | x6 | x6 | x6 | x6 | x6 | x6 | x6 | x6 | x6 | x6 | x6 | %56
 x6 | x6 | x6 | x6 | x6 | x6 | x6 | x6 | x6 | x6 | x6 | x6 | x6 | x6 | x6 | x6 | x6 | x6 | x6 | %75
 x6 ||[K:G] x6 | x6 | x6 | x6 | x6 | x6 | x6 | x6 | x6 | x6 | x6 | x3 x2- x | x6 | x6 | x6 | x6 | %92
 x6 | x6 | x6 | x6 | x6 | x6 | x6 | x6 | x6 | x6 | x6 | x6 | x6 |!8va(! x6 | x6 | x6 | %108
 x!8va)! x5 |][K:E][M:4/4] x8 | x8 | x8 | x8 | x4 | x4 | x8 | x8 | x8 | x8 | x8 | x8 | x8 | x8 | %123
 x8 | x5!8va(! x3 | x8 | x!8va)! x7 | x8 | x4 | x4 | x8 | x8 ||[K:A] x8 | x8 | x8 | x8 | x8 | x8 | %138
 x8 | x8 | x8 | x8 | x8 | x8 | x8 | x8 | x4 | x4 | x8 | x8 ||[K:Ab] x8 | x8 | x8 | x8 ||[K:E] x9 | %155
 x4 | x4 | x8 | x8 | x8 | x8 | x8 | x8 | x8 | x8 | x8 | x8 | x8 | x8 | x8 |!8va(! x2!8va)! x6 | %171
 x8 | x8 | x8 |!8va(! x8 | x!8va)! x7 |][K:G][M:3/4] x6 | x6 | x6 | x6 | x6 | x6 | x6 | x6 | x7 | %185
 x6 | x6 | x6 | x6 | x6 | x6 | x6 | x6 | x6 | x6 | x6 | x6 | x6 | x6 | x6 | x6 | x6 | x6 | x6 | %204
 x6 | x4 x3/2 x3/8 x/8 | x3/4 x3/16 x/16 x x2 x2 ||[K:D] x6 | x6 | x6 | x6 | x6 | x6 | x6 | x6 | %215
 x6 | x6 | x6 | x6 | x6 | x6 | x6 | x6 | g4 g2 | f2 z2 f2 | e2 g2 z g | e2 g2 z2 |!8va(! x6 | x6 | %229
 x6 | x6 | x6 | x6 | x6 | x6!8va)! ||[K:G] x6 | x6 | x6 | x6 | x6 | x6 | x6 | x6 | x6 | x6 | x6 | %246
 x6 | x6 | x6 | x6 | x6 | !arpeggio!x/8 x3/8 x/ x x2 !arpeggio!x/8 x3/8 x/ x | %252
 !arpeggio!x/8 x3/8 x/ x x2 !arpeggio!x/8 x3/8 x/ x | !arpeggio!x/8 x3/8 x/ x x4 | x6 | x6 | %256
!8va(! x6 | x6 | x6!8va)! | x6 | x6 | x6 | x4 !arpeggio!x/8 x3/8 x/ x | x6 |][K:D][M:2/4] x4 | x4 | %266
 x4 | x4 | x4 | x4 | x4 | x4 | x4 | x4 | x4 | x4 | x4 | F A2 d | F A2 d | x4 | x4 | x4 | x4 | x4 | %284
 x4 | x4 | x4 | x4 | x4 | e2 g2 | b2 g2 | e4 | e2 g2 |!8va(! =c'2 c'2 | ^c'2 c'2!8va)! | =c2 c2 | %296
 ^c2 c2 | x4 | x4 | x4 | x4 | d2 d2 | d2 d2 | x4 | x4 | a2 x b | a2 z2 | x4 | x4 | x4 | x4 || %311
[K:G][M:3/8] x3 | x3 | x3 | x3 | x3 | x3 | x3 | x3 | b3 | c'3 | b3 | c'3 | x3 | x3 | x3 | x3 | x3 | %328
 x3 | x3 | x3 | F3 | G2 ^G | A2 ^A | B3 | ^c3 | d2 ^d | e2 ^e | f3 | b3 | (^e/^g/e/g/f) | b3 | %342
 (^e/^g/e/g/f) | x3 | x3 | x3 | x3 | x3 | x3 | x3 | x3 | x3 | x3 | x3 | x3 | x3 | x3 | x3 | x3 | %359
 x3 | x3 | b3 | c'3 | b3 | c'3 | x3 | x3 | x3 | x3 | x3 ||[K:D][M:2/4] x4 | x4 | x4 | x4 | x4 | %375
 x4 | x4 | x4 | x4 | x4 | x4 | x4 | x4 | x4 | x4 | x4 | F A2 d | F A2 d | x4 | x4 | x4 | x4 | x4 | %393
 x4 | x4 | x4 | x4 | x4 | e2 g2 | b2 g2 | e4 | e2 g2 |!8va(! =c'2 c'2 | ^c'2 c'2!8va)! | =c2 c2 | %405
 ^c2 c2 ||[M:3/8] ^f3 | =g3 | f3 | =g3 | x !arpeggio!x/8 x3/8 x/ x | x !arpeggio!x/8 x3/8 x/ x | %412
 x !arpeggio!x/8 x3/8 x/ x | x3 | x3 | x3 | x3 | x3 | x3 | x3 | x3 | x3 | x3 | x3 | x3 | x3 | %426
 a2 b | a2 b | a2 b | x3 | x3 | x3 | x3 |] %433
V:4
 x6 | x6 | x6 | x6 | x6 | x6 | x6 | x6 | x6 | x6 | x6 | x6 | x6 | x6 | x6 | x6 |[K:bass] x6 | x6 | %18
 x6 | x6 |[K:treble] x6 | x6 | x6 | x6 | x6 | x6 | x6 | x6 | x6 | x6 ||[K:D] x6 | x6 | x6 | x6 | %34
 x6 | x6 | x6 | x6 | x6 | x6 | x6 | x6 | x6 | x6 | x6 | x6 |[K:bass] x6 | x6 |[K:treble] x6 | x6 | %50
[K:bass] x6 | x6 |[K:treble] x6 | x6 | x6 | x6 | x6 | x6 | x6 | x6 | x6 | x6 | x6 | x6 | x6 | x6 | %66
 x6 | x6 | x6 | x6 | x6 | x6 | x6 | x6 | x6 | x6 ||[K:G] x6 | x6 | x6 | x6 | x6 | x6 | x6 | x6 | %84
 x6 | x6 | x6 | x6 | x6 | x6 | x6 | x6 | x6 | x6 | x6 | x6 | x6 | x6 | x6 | x6 | x6 | x6 | x6 | %103
 x6 | x6 | x6 | x6 | x6 | x6 |][K:E][M:4/4] x8 | x8 | x8 | x8 | x4 | x4 | x8 | x8 | x8 | x8 | x8 | %120
 x8 | x8 | x8 | x8 | x8 | x8 | x8 | x8 | x4 | x4 | x8 | x8 ||[K:A] x8 | x8 | x8 | x8 | x8 | x8 | %138
 x8 | x8 | x8 | x8 | x8 | x8 | x8 | x8 | x4 | x4 | x8 | x8 ||[K:Ab] x8 | x8 | x8 | x8 ||[K:E] x9 | %155
 x4 | x4 | x8 | x8 | x8 | x8 | x8 | x8 | x8 | x8 | x8 | x8 | x8 | x8 | x8 | x8 | x8 | x8 | x8 | %174
 x8 | x8 |][K:G][M:3/4] x6 | x6 | x6 | x6 | x6 | x6 | x6 | x6 | x x2 x x7/8 x/8 x x7/8 x/8 | %185
 x2 x x7/8 x/8 x x7/8 x/8 | x2 x x7/8 x/8 x x7/8 x/8 | x4 x x3/4 x/8x/8 | x4 x x3/4 x/8x/8 | %189
 x4 x x3/4 x/8x/8 | x6 | z .G .B.d x2 | x6 | x6 | x6 | x6 | x6 | x6 | x6 | x6 | %200
 x x7/8 x/16x/16 x4 | x x7/8 x/16x/16 x4 | x x7/8 x/16x/16 x x7/8 x/16x/16 x2 | x6 | %204
 x3 x7/8 x/8 x x7/8 x/16x/16 | x2 x3/2 x3/8 x/16x/16 x3/2 x3/8 x/8 | x3/4 x3/16 x/16 x x2 x2 || %207
[K:D] x6 | x6 | x6 | x6 | x6 | x6 | x6 | x6 | x6 | x6 | x6 | x6 | x6 | x6 | x6 | x6 | x6 | x6 | %225
 x6 | x6 | x6 | x6 | x6 | x6 | x6 | x6 | x6 | x6 ||[K:G] x6 | x6 | x6 | x6 | x6 | x6 | x6 | x6 | %243
 x6 | x6 | x6 | x6 | x6 | x6 | x6 | x6 | x6 | x6 | x6 | x6 | c6 | x6 | x6 | x6 | x6 | x6 | x6 | %262
 x4 !arpeggio!x/8 x3/8 x/ x | x6 |][K:D][M:2/4] x4 | x4 | x4 | x4 | x4 | x4 | x4 | x4 | x4 | x4 | %274
 x4 | x4 | x4 | x4 | x4 | x4 | x4 | x4 | x4 | x4 | x4 | x4 | x4 | x4 | x4 | x4 | x4 | x4 | x4 | %293
 x4 | x4 | x4 | x4 | x4 | x4 | x4 | x4 | x4 | x4 | x4 | x4 | x4 | x4 | x4 | x4 | x4 | x4 || %311
[K:G][M:3/8] x3 | x3 | x3 | x3 | x3 | x3 | x3 | x3 | x3 | x3 | x3 | x3 | x3 | x3 | x3 | x3 | x3 | %328
 x3 | x3 | x3 | x3 | x3 | x3 | x3 | x3 | x3 | x3 | x3 | x3 | x3 | x3 | x3 | x3 | x3 | x3 | x3 | %347
 x3 | x3 | x3 | x3 | x3 | x3 | x3 | x3 | x3 | x3 | x3 | x3 | x3 | x3 | x3 | x3 | x3 | x3 | x3 | %366
 x3 | x3 | x3 | x3 ||[K:D][M:2/4] x4 | x4 | x4 | x4 | x4 | x4 | x4 | x4 | x4 | x4 | x4 | x4 | x4 | %383
 x4 | x4 | x4 | x4 | x4 | x4 | x4 | x4 | x4 | x4 | x4 | x4 | x4 | x4 | x4 | x4 | x4 | x4 | x4 | %402
 x4 | x4 | x4 | x4 ||[M:3/8] x3 | x3 | x3 | x3 | x !arpeggio!x/8 x3/8 x/ x | %411
 x !arpeggio!x/8 x3/8 x/ x | x !arpeggio!x/8 x3/8 x/ x | x3 | x3 | x3 | x3 | x3 | %418
 x !arpeggio!x/8 x3/8 x/ x | x !arpeggio!x/8 x3/8 x/ x | x !arpeggio!x/8 x3/8 x/ x | %421
 x !arpeggio!x/8 x3/8 x/ x | x3 | x3 | x3 | x3 | x3 | x3 | x3 | x3 | x3 | x3 | x3 |] %433
V:5
"^Andantino"!pp! x3 z2 z | x3 z2 z | x3 z2 z | x3 z2 z |[K:bass] x3 z2 z |[K:treble] x3 z2 z | %6
[K:bass] x3 z2 z | %7
[K:treble][I:staff +1] (D,/A,/D/[I:staff -1]=F/A/d/)[I:staff +1] (G,,/=F,/G,/[I:staff -1]B,/E/G/) | %8
 x6 | z2 z!p! [A,C]3 | x6 | z2 z!p! .E.E.C | %12
[K:bass][I:staff +1] (B,,,/F,,/B,,/[I:staff -1]^D,/F,/B,/ (2:3:2^C^D) | %13
[I:staff +1] (B,,,/F,,/B,,/[I:staff -1]^D,/F,/B,/ (2:3:2^C^D) |!<(! (2:3:2(^C^D (2:3:2CD)!<)! | %15
!p!!>(! (2:3:2(^C^D (2:3:2CB,)!>)! |[K:treble]!p! x3 d z z | x3 ^d z z | x3 d z z | x3 ^d z z | %20
[K:bass]!mf! x3 E z z | z6 |[K:treble] x3 (2:3:2EF | x3 (2:3:2AB |!pp! x3 (2:3:2EF | x3 (2:3:2AB | %26
[K:bass] x3[K:treble] (2:3:2DE |!>(! (2:3:2(.[EG].[EG]- [EG]).[CE].[A,C]!>)! |[K:bass] [F,A,]6 | %29
 !arpeggio![G,B,] z z z2 z ||[K:D]"^risoluto"!f! F,6 | F,6 | G,3!p!!<(! .C,>(E,G,) | %33
 .E,>(G,B,) .G,.A,.C!<)! |!f! F,6 | F,6 | G,3!p!!<(! .C,>(E,G,) | .E,>(G,B,) .G,.A,!mf!.C!<)! | %38
[K:treble]!p! [DA]6 | [^DA]6 | ([EA]3!<(! [^DA]3)!<)! |!p! ([EA]3!<(! [^DA]3-)!<)! | %42
 .[DA]>"_dim."([^DA][Fc]) .[B,F].[DA].[F,D] | [B,F]3/2[K:bass] (A,/C) .F,.A,.^D, | %44
!p! .A,>(^G,F,) .E,.F,.=G, | .A,>(^G,F,)!>(! E,2 z!>)! |!pp! (E,3- E,2 G,) | (E,3- E,2 G,) | %48
 A,3- A,2 z | z2 z A,3 |!pp! (E,3- E,2 G,) | (E,3- E,2 G,) | %52
 A,2 z[I:staff +1] (D,,/A,,/D,/[I:staff -1]F,/A,/D/ | E) z z z2 z | %54
[K:treble] A,2 z[I:staff +1] (G,,/D,/G,/[I:staff -1]B,/D/G/ | A) z z z2 z | %56
!p! A,2 z[I:staff +1] (G,,/D,/G,/[I:staff -1]B,/D/G/ |!p!!<(! (2:3:2AG (2:3:2DB,)!<)! | %58
!f! (A^GE G3- | GFE ^G3) |!mf! [B,D]6 |[K:bass]"_dim." z2 z z (B,^G,) |!p! (=G,3- G,2 E, | G,6) | %64
!p! (=G,3- G,2 E, | G,6) |"^un peu retenu"!pp! F,6- | F,6 |[K:treble] (=C/D/E/F/E/D/ C3- | %69
 C/D/E/F/E/D/ =C3) |[K:bass]!pp! F,6- | F,6 |[K:treble]!pp! (=C/D/E/F/E/D/ C3- | %73
 C/D/E/F/E/D/ =C3) |!pp!!>(! ([=CE]6- | E3!>)! F3) || %76
[K:G]"^a tempo"!pp! z2 z[I:staff +1] (G,,/D,/G,/[I:staff -1]B,/D/G/) | %77
 z2 z[I:staff +1] (E,,/B,,/E,/[I:staff -1]G,/B,/E/) | %78
 z2 z[I:staff +1] (G,,/D,/G,/[I:staff -1]B,/D/G/) | %79
 z2 z[I:staff +1] (E,,/B,,/E,/[I:staff -1]G,/B,/E/) | %80
 z2 z[I:staff +1] (D,,/A,,/D,/[I:staff -1][K:bass]=F,/A,/D/) | %81
 z2 z[I:staff +1] (D,/A,/D/[I:staff -1][K:treble]=F/A/d/) | %82
 z2 z[I:staff +1] (D,,/A,,/D,/[I:staff -1][K:bass]=F,/A,/D/) | %83
[K:treble]!<(![I:staff +1] (D,/A,/D/[I:staff -1]=F/!<)!A/d/)!p!!>(![I:staff +1] (G,,/=F,/G,/[I:staff -1]B,/E/G/)!>)! | %84
!p! x6 | z2 z (EDC) | x6 | z2 z .E.D.C | %88
[K:bass][I:staff +1] (B,,,/F,,/B,,/[I:staff -1]^D,/F,/B,/ ^D).B,.^C | %89
[I:staff +1] (B,,,/F,,/B,,/[I:staff -1]^D,/F,/B,/ ^D).B,.^C |!pp! .^D"_dim.".B,.^C .D.B,.C | %91
 (2:3:2(^DB,- (2:3:2B,^C) |!p! (G,/A,/B,/C/B,/A,/ G,3- | G,/A,/B,/C/B,/A,/ G,3) | %94
 (G,/A,/B,/C/B,/A,/ G,3- | G,/A,/B,/C/B,/A,/ G,3- |"^en retenant peu"!p! G,/A,/B,/C/B,/A,/ G,3- | %97
"^à peu" G,/A,/B,/C/B,/A,/ G,3- |"_dim." G,/A,/B,/C/B,/A,/ G,3- | (2:3:2G,A, (2:3:2B,C) | %100
!pp! ([CD]6 | [B,D]6) | ([CD]6 | [B,D]6) |"^encore plus retenu"!pp! [B,D]6 |!pp! ([CE]6 | %106
 [G,CE]3 [F,CE]3) | [G,B,D]6- | [G,B,D] z z !fermata!z2 z |] %109
[K:E][M:4/4][K:treble]"^Moderato"!p! .[GB] z .[EGB] z .[EGB] z .[EGB] z | %110
!<(! .[Ece] z .[EAc] z!<)!!p!!>(! .[CEA] z .[DAc]!>)! z |!p! .[GB] z .[EGB] z .[EGB] z [FA-]2 | %112
 [=DFA] z [EG-]2 [CEG] z [^D^^F]2 |[K:bass]!pp!!>(! (G,>!>)!D,)!>(! (G,>!>)!D,) | %114
 (F,>E, C,/D,/E,/F,/) |"_dim." (D,>E, D,>^B,,) (C,>D, C,>[I:staff +1]A,,) | %116
[I:staff -1][K:treble]!pp! (G>D) (G>D) (F>E C/D/E/F/) |"_dim." (D>E D>^B,) (C>D C>A,) | %118
"_cresc." ([^B,D]/[CE]/[B,D]/).[G,=B,]/ ([CE]/[DF]/[CE]/).[A,C]/ [B,E]2 [A,C]2 | %119
 ([^B,D]/[CE]/[B,D]/).[G,=B,]/ ([CE]/[DF]/[CE]/).[A,C]/!<(! A,2- A,/.A/.G/.F/!<)! | %120
!p! .E/.G/.B/.E/ .D/.E/.B/.D/ .C/.E/.B/.C/ .B,/.E/.B/.B,/ | %121
 .A,/.C/.E/.A/!<(! .G,/.B,/.D/.G/ .F,/.A,/.C/!<)!.F/!p!!>(! .B,/.D/.F/.B/!>)! | %122
!p! .E/.G/.B/.E/ .D/.E/.B/.D/ .C/.E/.B/.C/ .B,/.E/.B/.B,/ | %123
 (E,/A,/C/E/!<(! A/E/C/A,/) (E,/A,/C/!<)!E/!p!!>(! A/F/C/A,/)!>)! | %124
 (E,/A,/C/E/ A/E/C/A,/) (E,/A,/C/E/) z2 | %125
[K:bass]!p! (=G,,/>A,,/G,,- G,,/A,,/B,,/=D,/) (E,/>D,/B,,- B,,/D,/E,/=G,/) | %126
 (A,/"_cresc."=G,/A,/B,/) (A,/G,/A,/B,/) (A,/G,/A,/B,/) (A,/G,/A,/B,/) | %127
 (C/B,/C/^D/) (C/B,/C/D/) (C/B,/C/D/) (C/B,/C/D/) | %128
!f! !arpeggio!!>![G,B,E]/4 x3/4 x !arpeggio!!>![A,CE]/4 x3/4 x | %129
 !arpeggio!!>![G,B,E]/4 x3/4 x !arpeggio!!>![G,B,D]/4 x3/4 !arpeggio!!>![F,B,D]/4 x3/4 | %130
!ff! !arpeggio![G,B,E]/4 x3/4 x !arpeggio![A,CE]/4 x3/4 x !arpeggio![G,B,E]/4 x3/4 x D2 | %131
"^poco rit" (E/>"_dim."F/E- E/>F/E- E2) z2 ||[K:A]"^a tempo scherzando"!p! z2 E z z4 | %133
!<(! (E,E,-!<)!!p!!>(! E,E,-!>)!!p!!<(! E,E,-!<)!!p!!>(! E,[C,E,])!>)! |!p! z2 E z z4 | %135
!<(! (E,B,,-!<)!!p!!>(! B,,E,-!>)!!p!!<(! E,B,,-!<)!!p!!>(! B,,E,)!>)! | %136
[K:treble]!p! z2 !arpeggio!!>![G,B,EG]2- [G,B,EG]!<(!(.[^A,E].[B,E]!p!.[CE])!<)! | %137
!p! z2 !arpeggio!!>![G,B,EG]2- [G,B,EG](.[^A,E].[B,E].[CE]) | (^DGFE) (DGFE) | %139
!>(! (^DG FD!>)! .[G,B,]) z[K:bass]!p! E,/>F,/!fermata!E, | %140
[K:treble]!pp! z2 !>![F,A,=CE]4- [F,A,CE] z | %141
 z!<(! (3([B,D]/E/F/!<)!!p!!>(! [DF]2-!>)!!p! [DF]/>[B,E]/[G,D]/>[B,E]/ [DF][B,D]) | %142
!pp! z2 !>![F,A,=CE]4 z z | z!<(! (3(B,/=C/D/!<)!!p! D2-!>(! D/>C/B,/>C/ D!p!B,)!>)! | %144
 z [E,=G,=C]"_cresc." [G,CE]2 z [G,B,D] [B,D=G]2 | z [=G,B,E] [B,E=G]2 z [B,DF] [DFB]2 | %146
!p! z ([B,^DF] [DFB]2 | [CEB]2 [CE^G]2) |!p! z ([B,^DF] [DFB]2 [CEB]2 [EG]) z | %149
!p! (^D/>E/D- D/>E/"_dim."D-"^(     )" _E/>=F/E- E/>F/E) ||[K:Ab]!pp! z2 !>![E,E]4 z2 | %151
 ([DE][B,E]- [B,E][DE]- [DE][B,E]- [B,E][CE]) |!pp! z2!p!!<(! (_G4!<)!!pp! F2) | %153
!p!!<(! (_G6!<)!!pp! F2) || %154
[K:E][K:treble] x/x/"^Tempo Ⅰ" !arpeggio![G,B,E] z{/c} !>![EGB]2- [EGB].[B,EG] .[G,B,E].[E,G,C] | %155
 (3(C/D/E/F- (3F/E/D/C- |!p!!<(! (3C/D/E/F-!<)!!>(! (3F/E/D/B,)!>)! | %157
!p! [G,B,E] z{/c} [EGB]2- [EGB].[B,EG] .[A,CE].C | %158
 ([=DFA]/F/D/B,/ [EG]) z ([CEG]/E/C/A,/ [C^^F]) z | %159
[K:bass]!pp! (G,>D,) (G,>D,) (F,>E, C,/D,/E,/F,/) | %160
 (D,>E, D,>^B,,)!pp! (C,>D, C,>[I:staff +1]A,,) | %161
[I:staff -1][K:treble]!pp! (G>D) (G>D) (F>E C/D/E/F/) | (D>E D>^B,) (C>D C>A,) | %163
"_cresc." ([^B,D]/[CE]/[B,D]/).[G,B,]/ ([CE]/[DF]/[CE]/).[A,C]/ [=B,E]2 [A,C]2 | %164
 ([^B,D]/[CE]/[B,D]/).[G,B,]/ ([CE]/[DF]/[CE]/).[A,C]/!p!!<(! A,2- A,/.A/.G/.F/!<)! | %165
!mf! .E/.G/.B/.E/ .D/.E/.B/.D/ .C/.E/.B/.C/ .B,/.E/.B/.B,/ | %166
 .A,/.C/.E/.A/!<(! .G,/.B,/.D/.G/ .F,/.A,/.C/!<)!.F/!>(! .B,/.D/.F/.B/!>)! | %167
!p! .E/.G/.B/.E/"_cresc." .D/.E/.B/.D/ .C/.E/.B/.C/ .B,/.E/.B/.B,/ | %168
 (E,/A,/C/E/ A/E/C/A,/) (E,/A,/C/E/ A/F/C/A,/) | (E,/A,/C/E/ A/E/C/A,/) (E,/A,/C/E/ D/C/B,/A,/) | %170
!f! [G,B,E]{/c} !>![EGB]2 !>![B,EG]- [B,EG]!>![G,B,E] !>!C!>!B, | %171
!ff! z{/c} !>![EGB]2 !>![B,EG]- [B,EG]!>![G,B,E] !>!C!>!B, | %172
"^retenu" !>!C!>!B,!>!C!>!E !>!C!>!B,!>!C!>!E | !>!C!>!B,!>!C!>!E !>!C!>!B,!>!C!>!D | E8 | %175
 .E z z2 !fermata!z4 |][K:G][M:3/4]"^Moderato" z2!p!{/G} !>!F4 | z2!p!{/G} !>!F4- | F6- | %179
 F4{/G} F2- | F2{/E} !>!D4- | D2{/E} !>!D4- | D6- |"^un poco rit." D6 | %184
 x"^(a tempo)" !arpeggio![A,E] z z2 !arpeggio![A,EA] z | !arpeggio![Gc] z z2 !arpeggio![Gc] z | %186
 !arpeggio![GB] z z2 !arpeggio![=FA] z | !arpeggio![CEA] z z .E.A.c | %188
!mp! !arpeggio![A,CE] z z2 E2 |!mp!!<(! !arpeggio![G,B,D] z z2 D2!<)! | %190
!f! !arpeggio![A,CE] z{/D} !>!A2{/D} !>!A2 | [G,B,D] z z2 z2 |!p! c6 | c6 |!pp! B6 | B6 | %196
!p! (A4 F!p!B) |!p! (A4 F!p!B) |"_dim." (BF ^DF B^G) |!p! (BF) z .F.B z | %200
[K:bass]!pp! (E,2 B,2) !tenuto!B,2 | (B,/A,/G,/A,/ B,4) | (F,G,A,F, E,/F,/E,/C,/ | %203
!pp! E,2"_cresc." G,2 A,2 | C2 D2!pp! E) z |[K:treble]!p! [EG] z z2 [EG] z | %206
 !arpeggio!!>![B,D]!arpeggio!!>![B,D] z !>![B,D] z2 || %207
[K:D][K:bass]!p! (G,/"_gracieux"A,/B,/C/ D2- DC/B,/ | C/D/B,/C/ A,!>!B,- B,A,) | %209
 G,A,/B,/ (!>!B,2- B,D/C/ |!<(! A,2 D2 F2)!<)! |!p! (G,4 E,2 | A,4- A,B,) | (B,4- B,^A,) | %214
 (B,4- B,^A,) |!pp! A,6 |!mf! TA,2!>(! (TA,>^G, F,/G,/A,/F,/)!>)! |!pp! A,6 | %218
!mf! TA,2 (TA,>=G, F,/G,/A,/!p!F,/) |!mf! (F(3E/F/E/ D(3C/D/C/ B,/C/D/B,/) | %220
"_dim." (D(3C/D/C/ B,(3A,/B,/A,/ G,/A,/B,/G,/) |!p! [E,B,]6 | .E, z z2 z2 | %223
[K:treble] [B,D] z z2 [B,DG] z | [A,DF] z z2 [A,DF] z |!f!!<(! (E2 G2 B!f!A)!<)! | %226
!f!!<(! (E2 G2 B!f!A)!<)! |!p! .[DFA].F/.F/ .[DF].[FA] .[FA].[DF]/.[DF]/ | %228
 .[DF].[FA] .[FA].[DF] !arpeggio!!>![CFA]/8 x3/8 x3/2 | %229
!p! .[DFA].F/.F/ .[DF].[FA] .[FA].[DF]/.[DF]/ | .[DF].[FA] .[FA].[DF] [EA]2 |!p! [=CA=c]6 | %232
 [=CA=c]4 [B,^GB]2 | [=C=FA]"_dim.".D/.D/ .D.F .F.D |"^(rall.)" .D.=F .A.B z2 || %235
[K:G]"^(a tempo)"!p! (E/"_legato"C/A,/C/) (E/C/A,/C/) (E/C/A,/C/) | %236
 (E/C/G,/C/) (E/C/G,/C/) (E/C/G,/C/) | (D2 G2 =F2) | E6 | (E2 A2 F2) | (D2 G2 E2) | (E2 A2 F2) | %242
 (D/B,/G,/B,/) (D/B,/G,/B,/) (D/G,/B,/D/) |[K:bass] C6 |!>(! C6!>)! |!pp! B,6 | B,6 | %247
!pp!!<(! (E,/D,/C,/D,/ E,C, B,,^D,)!<)! |!pp!!<(! (E,/D,/C,/D,/ E,C, B,,!p!^D,)!<)! | %249
"_dim." B,F,^D,F,B,^G, |!p! .B,.F, .B, z z2 |[K:treble] [B,E] z [B,E] z [EG] z | %252
 [DG] z [DG] z G z | [A,D] z z2 [A,C] z |!p! (F"_dim."GAF E/F/E/C/) |"_dim." [CE]6 | [CE]6 | %257
!pp! [B,D]4 z2 | .F.D/.D/ .D(F- FD) |!ppp! [B,D]2 z2 z2 | .F.D/.D/ .D(F- FD) |!pppp! .F2 .D2 .B,2 | %262
 (F2 D2) [A,C] z | [B,D] z !fermata!z2 z2 |] %264
[K:D][M:2/4]"^Allegro giusto" z2 z3/2!p!"_très rythmé" (A,/ | !>!D>)(B, !>!E>)(B, | %266
 !>!D/).D/.D/.B,/ !>!E2 | .F/.F/.F/.C/ !>!E/.E/.E/.B,/ | !>!D/.D/.A,/.B,/ C2 | D/D/G/B/ !>![CGB]2 | %270
 D/D/G/B/ !>![CGB]2 |!p!!p! [B,DG]2 [B,DG]2 |!p!!<(! [B,DG]2!<)! [CGB][A,A] | %273
!mp! !>![Dd]>(B, !>!E>)(B, | !>!D/).D/.D/.B,/ !>!E2 | !>!F/.F/.F/.C/ !>!E/.E/.E/.B,/ | %276
 !>!D/.D/.A,/.B,/ C2 |[K:bass]!p!!<(! ([D,F,] [D,A,]2!p! [^G,B,D])!<)! | %278
!p!!<(! ([D,F,] [D,A,]2!p! [^G,B,D])!<)! |!p! .E,"_dim.".A,/.A,/ .A,.D/.B,/ | .^G,.E, z2 | %281
!p! (B,/C/D- D/E/F/=G/ | F/E/D- D/C/B,/A,/) | (G,/A,/B,- B,/A,/G,- | G,/A,/B,- B,/C/D/E/) | %285
!p! .[A,=C].[=F,A,] .[A,C=F].[F,A,C] | .[A,=C=F].[=F,A,C] .[A,C].[F,A,] | %287
 .[A,=C].[=F,A,] .[A,B,].[F,A,] | .[A,=C].[=F,A,] .[A,D].[F,A,] | %289
!p! .[G,B,E].[E,G,B,]/.[E,G,B,]/ .[G,B,E].[E,G,B,]/.[E,G,B,]/ | %290
 .[G,B,E].[E,G,B,]/.[E,G,B,]/ .[G,B,E].[E,G,B,]/.[E,G,B,]/ | %291
 .[G,B,E].[E,G,B,]/.[E,G,B,]/ .[G,B,E].[E,G,B,]/.[E,G,B,]/ | %292
 .[G,B,E].[E,G,B,]/.[E,G,B,]/ .[G,B,E].[E,G,B,]/.[E,G,B,]/ | %293
[K:treble]!p!"_cresc." z .[=C=F=c]/.[CFc]/ z .[CFc]/.[CFc]/ | %294
 z .[^C=F^c]/.[CFc]/ z .[CFc]/.[CFc]/ |!p! z .[=C=F]/.[CF]/ z .[CF]/.[CF]/ | %296
 z .[^C=F]/.[CF]/ z .[CF]/.[CF]/ |!f! !>![A,D^F]2 !>![A,DEG]2 | !>![A,D^F]2 !>![A,DEG]2 | Ac GB | %300
 FA FA |!mf! (G>E D>E) | (G>E DC) | z2!f! !>![GB]2 | !>![GB]2 !>![GA]2 | [DFA] z [B,DG] z | %306
 [A,DF] z z2 |!f! !>!E !>!D2 !>!D/!>!C/ | !>!E !>!D3 | %309
!p! !tenuto!E !tenuto!D2"_dim." !tenuto!D/!tenuto!C/ | !tenuto!E !tenuto!D3 || %311
[K:G][M:3/8][K:bass]"^Tempo di Valse""^rit."!p! z ([G,B,][=F,B,]- | [F,B,] [^F,C]2) | %313
"^a tempo"!pp! z ([G,B,][=F,B,]- | [F,B,] [^F,C]2) |[K:treble]"_cresc." ([G,B,][B,D][CE]) | %316
 ([B,D][DF][EG]) | (CB,A,) | (CB,!p!E) |!p! =F3 | ^F3 | =F3 | ^F3 |!p! (D2 ^D | E2 =F) |!mf! (=F3 | %326
 E3) |!p! (D2 ^D | E2 =F) |!mf! (=F3 | E3) |[K:bass]!p! (^F,3 | G,2 ^G,) | (A,2 ^A, | %334
 [B,,B,] [B,,B,]2) |"_cresc." (^C3 | D2 ^D) | (E2 ^E | [A,F]2 ^D) |[K:treble]!mf! ([EB]3 | %340
 ^E/^G/E/G/F) | ([=EB]3 | ^E/^G/E/G/F) |[K:bass]"_dim." (=D2 D | D>B,D) |"_dim." ^C3- | C3 | %347
!p! ^C3- | C3 |!p! (B,/A,/F,/A,/B,/A,/ | F,/A,/B,/A,/F,/A,/) | (B,/A,/F,/A,/B,/A,/ | %352
 F,/A,/B,/A,/F,/A,/) |!pp! [^G,B,]3- | [G,B,]3 | [^G,B,]3- | [^G,B,]3 |[K:treble]!pp! (FE)(E/^D/) | %358
"^un poco rit." (FE)(E/^D/ | FE)(E/^D/ | FE)(E/^D/) |"^a tempo" z [=F,B,D] z | [=F,B,D] z [^F,CD] | %363
 z [=F,B,D] z | [=F,B,D] z [^F,CD] | ([G,B,][B,D][CE]) | ([B,D][DF][EG]) | z3 | %368
!p!!<(! ([B,D][DF]!p![EG])!<)! | z3 ||[K:D][M:2/4]"^Tempo Ⅰ" z4 | %371
[K:bass]!p! (B,>E,)"_cresc." (B,>E,) | C2 C2 | C2 C2 |[K:treble]!p! !>!D>(B, !>!E>)(A, | %375
 !>!D/).D/.D/.B,/ !>!E2 | !>!F/.F/.F/.C/ !>!E/.E/.E/.B,/ | !>!D/.D/.A,/.B,/ C2 | %378
 D/D/G/B/ !>![CGB]2 | D/D/G/B/ !>![CGB]2 |!p!!p! [B,DG]2 [B,DG]2 |!p!!<(! [B,DG]2!<)! [CGB][A,A] | %382
!mp! !>![Dd]>(B, !>!E>)(B, | !>!D/).D/.D/.B,/ !>!E2 | !>!F/.F/.F/.C/ !>!E/.E/.E/.B,/ | %385
 !>!D/.D/.A,/.B,/ C2 |[K:bass]!p!!<(! ([D,F,] [D,A,]2!p! [^G,B,D])!<)! | %387
!p!!<(! ([D,F,] [D,A,]2!p! [^G,B,D])!<)! |!p! .E,"_dim.".A,/.A,/ .A,.D/.B,/ | .^G,.E, z2 | %390
!p! (B,/C/D- D/E/F/=G/ | F/E/D- D/C/B,/A,/) | (G,/A,/B,- B,/A,/G,- | G,/A,/B,- B,/C/D/E/) | %394
!p! .[A,=C].[=F,A,] .[A,C=F].[F,A,C] | .[A,=C=F].[=F,A,C] .[A,C].[F,A,] | %396
 .[A,=C].[=F,A,] .[A,B,].[F,A,] | .[A,=C].[=F,A,] .[A,D].[F,A,] | %398
!p! .[G,B,E].[E,G,B,]/.[E,G,B,]/ .[G,B,E].[E,G,B,]/.[E,G,B,]/ | %399
 .[G,B,E].[E,G,B,]/.[E,G,B,]/ .[G,B,E].[E,G,B,]/.[E,G,B,]/ | %400
 .[G,B,E].[E,G,B,]/.[E,G,B,]/ .[G,B,E].[E,G,B,]/.[E,G,B,]/ | %401
 .[G,B,E].[E,G,B,]/.[E,G,B,]/ .[G,B,E].[E,G,B,]/.[E,G,B,]/ | %402
[K:treble]!p!"_cresc." z .[=C=F=c]/.[CFc]/ z .[CFc]/.[CFc]/ | %403
 z .[^C=F^c]/.[CFc]/ z .[CFc]/.[CFc]/ |!p! z .[=C=F]/.[CF]/ z .[CF]/.[CF]/ | %405
 z .[^C=F]/.[CF]/ z .[CF]/.[CF]/ ||[M:3/8]"^Mouvt de Valse à un temps"!f! !>!D2 B, | !>!E2 A, | %408
 DDB, | E2 A, |!mf! !>![A,CF]!>![A,CF]!>![F,A,C] | !>![G,B,E]!>![G,B,E]!>![E,G,B,] | %412
[K:bass] !>![F,A,D]!>![D,F,A,]!>![D,F,C] | !>![F,A,=C]2 z |[K:treble]!p! (EDD/^C/ | ED/E/F) | %416
 (EDD/^C/ | ED/E/F) |[K:bass]!p! z [F,B,D] z | z [E,A,=C] z |!p!"_cresc." z [F,B,D] z | %421
 z [E,A,=C] z |!f! z [G,B,DF] z | z [G,A,^C] z |!f! z [G,B,DF] z | z [G,A,C] z | %426
!ff! [F,A,D]2 [G,B,D] | [F,A,D]2 [G,B,D] | [F,A,D]2 [G,B,D] | [F,A,D][F,A,D] z | z [F,A,D]2 | %431
 [F,A,D]3- | [F,A,D]2 !fermata!z |] %433
V:6
!ped! (G,,/D,/G,/[I:staff -1]B,/D/G/)[I:staff +1] x2 x!ped-up! | %1
!ped! (E,,/B,,/E,/[I:staff -1]G,/B,/E/)[I:staff +1] x2 x!ped-up! | %2
!ped! (G,,/D,/G,/[I:staff -1]B,/D/G/)[I:staff +1] x2 x!ped-up! | %3
!ped! (E,,/B,,/E,/[I:staff -1]G,/B,/E/)[I:staff +1] x2 x!ped-up! | %4
!ped! (D,,/A,,/D,/[I:staff -1]=F,/A,/D/)[I:staff +1] x2 x!ped-up! | %5
!ped! (D,/A,/D/[I:staff -1]=F/A/d/)[I:staff +1] x2 x!ped-up! | %6
!ped! (D,,/A,,/D,/[I:staff -1]=F,/A,/D/)[I:staff +1] x2 x!ped-up! | %7
!ped!!<(! D,3!ped-up!!ped! G,,3!<)!!ped-up! | %8
!ped! (C,,/G,,/E,/[I:staff -1]G,/C/E/ G/E/C/[I:staff +1]G,/E,/G,,/ | %9
 C,,2) z!ped-up!!ped! [=F,,C,]3!ped-up! | %10
!<(!!ped! (C,,/G,,/E,/[I:staff -1]G,/C/!<)!E/!p!!>(! G/E/C/[I:staff +1]G,/E,/G,,/!>)! | %11
 C,,2) z!ped-up!!ped! [^F,,C,]3!ped-up! |!ped! B,,,3 z2 z!ped-up! |!ped! B,,,3 z2 z!ped-up! | %14
!ped! z6!ped-up! |!ped! z6!ped-up! |!ped! G,,/=D,/G,/[I:staff -1]D/G/B/[I:staff +1] x2 x!ped-up! | %17
!ped! E,,/B,,/^D,/[I:staff -1]^D/G/B/[I:staff +1] x2 x!ped-up! | %18
!ped! G,,/=D,/G,/[I:staff -1]D/G/B/[I:staff +1] x2 x!ped-up! | %19
!ped! E,,/B,,/^D,/[I:staff -1]^D/G/B/[I:staff +1] x2 x!ped-up! | %20
!ped! C,,/G,,/C,/[I:staff -1]E,/G,/C/[I:staff +1] x2 x!ped-up! | z6 | %22
!p!!ped! D,,/A,,/D,/[I:staff -1]F,/C/D/[I:staff +1] x2 x!ped-up! | %23
!ped! G,,/D,/G,/[I:staff -1]B,/D/G/[I:staff +1] x2 x!ped-up! | %24
!ped! D,,/A,,/D,/[I:staff -1]F,/C/D/[I:staff +1] x2 x!ped-up! | %25
!ped! G,,/D,/G,/[I:staff -1]B,/D/G/[I:staff +1] x2 x!ped-up! | %26
!ped! A,,,/E,,/A,,/[I:staff -1]E,/G,/C/[I:staff +1] x2 x!ped-up! | [A,,E,]6 | D,6 | %29
 .[G,,D,]2!mp! G,,- G,,.F,,.E,, ||[K:D] [D,,A,,]6 | [^D,,A,,]6 | [E,,A,,]6 | [E,,A,,]3 [A,,,A,,]3 | %34
 [D,,A,,]6 | [^D,,A,,]6 | [E,,A,,]6 | [E,,A,,]3 [A,,,A,,]3 |!ped! z6!ped-up! |!ped! z6!ped-up! | %40
!ped! z2 z!ped-up!!ped! (F,/^G,/A,/B,/!p!C)!ped-up! | %41
!ped! z2 z!ped-up!!ped! (F,/^G,/A,/B,/C)!ped-up! |!p! [B,,,F,,]6- | z3/2 (^D,/F,) .B,,.D,.F,, | %44
 E,,6- | E,,3 .A,,>(=G,,F,,) |!ped! [E,,B,,]3- [E,,B,,]2 [A,,,A,,]!ped-up! | %47
!ped! [E,,B,,]3- [E,,B,,]2 [A,,,A,,]!ped-up! |!ped! [D,,A,,]3- [D,,A,,]2!ped-up! z | z2 z B,,3 | %50
!ped! [E,,B,,]3- [E,,B,,]2 [A,,,A,,]!ped-up! |!ped! [E,,B,,]3- [E,,B,,]2 [A,,,A,,]!ped-up! | %52
!ped! [D,,A,,]3!ped-up!!pp!!ped! D,,3- | D,,3!ped-up!!ped! D,,3!ped-up! | %54
!ped! [D,,D,]3!ped-up!!ped! G,,3- | G,,3!ped-up! E,,3 |!ped! [D,,D,]3!ped-up!!ped! G,,3-!ped-up! | %57
!ped! G,,3!ped-up!!ped! z2 z!ped-up! |!ped! E,6-!ped-up! |!ped! E,6!ped-up! | %60
!ped! [E,,E,]6!ped-up! |!ped! E,,6!ped-up! |!ped! [E,,A,,]6- | [E,,A,,]6!ped-up! | %64
!ped! [E,,A,,]6- | [E,,A,,]6!ped-up! |!ped! [D,,A,,]6- | [D,,A,,]6!ped-up! |!ped! [F,^G,]6- | %69
 [F,G,]6!ped-up! |!ped! [D,,A,,]6- | [D,,A,,]6!ped-up! |!ped! [F,^G,]6- | [F,G,]6!ped-up! | %74
!ped! ([F,A,-]6 | [D,A,]6)!ped-up! ||[K:G]!ped! G,,3- G,,3!ped-up! |!ped! E,,3- E,,3!ped-up! | %78
!ped! G,,3- G,,3!ped-up! |!ped! E,,3- E,,3!ped-up! |!ped! D,,3- D,,3!ped-up! | %81
!ped! D,3- D,3!ped-up! |!ped! D,,3- D,,3!ped-up! |!ped! D,3!ped-up!!ped! G,,3!ped-up! | %84
!ped! (C,,/G,,/E,/[I:staff -1]G,/C/E/ G/E/C/[I:staff +1]G,/E,/G,,/ | %85
 C,,2) z!ped-up!!ped! [=F,,C,]3!ped-up! | %86
!ped! (C,,/G,,/E,/[I:staff -1]G,/C/E/ G/E/C/[I:staff +1]G,/E,/G,,/ | %87
 C,,2) z!ped-up!!ped! [^F,,C,]3!ped-up! |!ped! B,,,3 z2 z!ped-up! |!ped! B,,,3 z2 z!ped-up! | z6 | %91
!ped! z6!ped-up! |!ped! ([G,,-=D,]6!ped-up! |!ped! [G,,^D,]6)!ped-up! |!ped! ([G,,-=D,]6!ped-up! | %95
!ped! [G,,^D,]6)!ped-up! |!ped! [C,,G,,]6-!ped-up! |!ped! [C,,G,,]6!ped-up! |!ped! z6!ped-up! | %99
!ped! z6!ped-up! |!ped! z6!ped-up! |!ped! z2 z z2 .D,!ped-up! |!ped! z6!ped-up! |!ped! z6!ped-up! | %104
!ped! E,6!ped-up! |!ped! A,,6!ped-up! |!ped! [D,,A,,]6!ped-up! |!ped! [G,,,D,,]6- | %108
 [G,,,D,,]!ped-up! z z !fermata!z2 z |][K:E][M:4/4] .E z .D z .C z .B, z | %110
 .A, z .G, z .F, z .B, z | .E z .D z .C z (F,/A,/C/E/ | %112
 B,) z (E,/G,/B,/=D/ A,) z (^D,/^^F,/^A,/C/ | D,) z z2 | G,,4 | G,,8 | [G,,D,]8 | G,,8 | %118
 [G,,D,]2 [F,,C,]2 [E,,B,,]2 [F,,C,]2 | [G,,D,]2 [F,,C,]2 [=B,,,=B,,]4 | [E,,B,,]8 | [E,,B,,]8 | %122
 [E,,B,,]8 | [A,,,A,,]4 (A,,>G,, F,,>G,, |!p! [A,,,A,,]4) A,,2 [=D,,A,,]2 | =G,,, z z2 z4 | z8 | %127
!ped! [B,,,B,,]8!ped-up! |!ped! [E,,E,]2!ped-up!!ped! [A,,E,]2!ped-up! | %129
!ped! [E,,E,]2!ped-up!!ped! [G,,D,]B,,!ped-up! | %130
!ped! [E,,E,]2!ped-up!!ped! [A,,E,]2!ped-up!!ped! [E,,E,]2!ped-up! !>!G,,!>!F,, | %131
 (E,4- E,/>F,/E,- E,/>F,/E,) ||[K:A]!ped! [A,,,E,,]2- [A,,,E,,] z z4!ped-up! | %133
!ped! (D,B,,- B,,D,- D,B,,- B,,) z!ped-up! |!ped! [A,,,E,,]2- [A,,,E,,] z z4!ped-up! | %135
!ped! (B,,F,,- F,,B,,- B,,F,,- F,,B,,)!ped-up! | %136
!ped! [E,,B,,]4- [E,,B,,]!ped-up!!ped! z z2!ped-up! | %137
!ped! [E,,B,,]4- [E,,B,,]!ped-up!!ped! z z2!ped-up! | %138
!ped! (G,2 =A,2)!ped-up!!ped! (G,2 A,2)!ped-up! | %139
!ped! (G,2 B,,2)!ped-up! .[E,,B,,] z!ped! z2!ped-up! |!ped! [D,,A,,]4- [D,,A,,] z z2!ped-up! | %141
!ped! [E,,B,,]6 z2!ped-up! |!ped! [D,,A,,]4- [D,,A,,] z z2!ped-up! |!ped! [=G,,,D,,]6 z2!ped-up! | %144
!ped! [=C,,=G,,]3 [C,,G,,]!ped-up!!ped! z D, =G,2!ped-up! | %145
!ped! [E,,B,,]3 [E,,B,,]!ped-up!!ped! z F, B,2!ped-up! |"_la basse en dehors"!ped! (F,4!ped-up! | %147
!ped! ^G,2 ^A,G,)!ped-up! |!ped! (F,4 G,2 ^A,B,/C/)!ped-up! |!ped! z8!ped-up! || %150
[K:Ab]!ped! [A,,,E,,]2- [A,,,E,,] z z4!ped-up! |!ped! z8!ped-up! | %152
!ped! .[A,,,E,,] z z2 z4!ped-up! |!ped! z8!ped-up! || %154
[K:E]!mp! x !arpeggio![E,,B,,] z .[D,,D,] z .[C,,C,] z .[B,,,B,,] z | .[A,,E,] z .[G,,C,] z | %156
 .[F,,C,] z .[B,,,B,,] z | .[E,,B,,] z .[D,,D,] z .[C,,C,] z .F,, z | %158
!ped! .[B,,,B,,]!ped-up! z .E,, z!ped! .[A,,,A,,]!ped-up! z .^D,, z | %159
!ped! D, z z2!ped-up!!ped! x4!ped-up! |!ped! G,,8!ped-up! |!pp!!ped! [G,,D,]8!ped-up! | %162
!ped! (F,>G, F,>E,) (E,>F, E,>C,)!ped-up! | [G,,D,]2 [F,,C,]2 [E,,B,,]2 [F,,C,]2 | %164
 [G,,D,]2 [F,,C,]2 [B,,,B,,]2 z2 | [E,,B,,]8 | [E,,B,,]8 | [E,,B,,]8 | %168
 [A,,,A,,]4 (A,,>G,, F,,>G,, | [A,,,A,,]4) A,,2 F,,B,, | B,,2 D,2 C,2 [D,A,]2 | %171
 B,,2 D,2 C,2 [D,A,]2 |!ff! [E,A,]2 [F,A,]2 [E,A,]2 [F,A,]2 | [E,A,]2 [F,A,]2 [E,A,]2 A,2 | %174
!ped! [E,,B,,G,B,]8!ped-up! | .[G,B,] z z2 z4 |][K:G][M:3/4] z6 | z6 | z6 | z6 | z6 | z6 | z6 | %183
 z6 |!ped! x z4!ped-up!!ped! x!ped-up! x7/8!ped! x/8 | %185
 !arpeggio![CE]!ped-up! z z2!ped! !arpeggio![CE] z!ped-up!!ped! | %186
 !arpeggio![G,D]!ped-up! z z2!ped! !arpeggio![D,A,] z!ped-up!!ped! | %187
 .[A,,E,].E,!ped-up! .A, z z2!ped! | !arpeggio![F,,D,] z z/!ped-up! D,/A,/C/ z2!ped! | %189
 !arpeggio![G,,D,] z!ped-up! z/ D,/G,/B,/ z2!ped! | !arpeggio![F,,D,] z z4 | [G,,D,] z z2 z2 | %192
!ped! [CE]6!ped-up! |!ped! [CD]6!ped-up! |!ped! [B,D]6!ped-up! |!ped! [B,C]6!ped-up! | %196
 [A,C]4 [A,B,]2 | [A,C]4 [A,B,]2 | (^G,4 F,2 | .B,,).F,.B, z z2 | E,,2 z2 z2 | [G,,D,]2 z2 z2 | %202
 D,,2 z2 A,,2 | [C,,G,,]6 | [C,,G,,]4 z2!ped!!ped-up! | .D.A,.D,.A,!ped!.D.A,!ped! | %206
 !arpeggio!!>![G,,D,]!ped!!ped-up!!arpeggio!!>![G,,D,] z!ped! !>![G,,D,] z G,, || %207
[K:D] E,, z z2 [A,,,A,,] z | D,, z z2 D,, z | (E,,2 G,,2 B,,A,, | D,,) z z2 z2 | %211
 E,, z z2 [A,,,A,,] z | (D,,2 D,2 ^D,2) | E,2 z2 C,F,, | z2 z2 C,F,, | [F,,B,,]6 | [F,,B,,]6 | %217
 [F,,B,,]6 | [F,,B,,]6 | E,,6 | E,6 | A,,6 | .A,, z z2 z2 | %223
!ped!!f! (E,/B,/!ped-up!E,/B,/) (E,/B,/E,/B,/)!ped! (A,,/E,/!ped-up!A,,/E,/) | %224
!ped! (D,,/A,,/!ped-up!D,,/A,,/) (D,,/A,,/D,,/A,,/)!ped! (D,,/A,,/!ped-up!D,,/A,,/) | %225
!ped! (D,,/A,,/D,,/A,,/) (D,,/A,,/D,,/A,,/) (D,,/A,,/D,,/A,,/)!ped-up! | %226
!ped! (D,,/A,,/D,,/A,,/) (D,,/A,,/D,,/A,,/) (D,,/A,,/D,,/A,,/)!ped-up! | %227
 D,, .B,/.B,/ .B,.D .D.B,/.B,/ | .B,.D .D.B,!ped! F,2!ped-up! | D.B,/.B,/ .B,.D .D.B,/.B,/ | %230
 .B,.D .D.B, .A,.G, | .=F,.D,/.D,/ .D,.F, .F,.D,/.D,/ | .D,.=F, .F,.D, E,2 | =F,2 z4 | z6 || %235
[K:G]!ped! [A,,E,]6!ped-up! |!ped! [C,,G,,]6!ped-up! | %237
!ped! [G,,D,]4!ped-up!!ped! [D,,D,]2!ped-up! |!ped! A,,E,/E,/ E,A,,- A,,E,!ped-up! | %239
!p!!ped! D,6!ped-up! |!ped! D,6!ped-up! |!ped! D,6!ped-up! |!ped! D,2 z2 z2!ped-up! | %243
!ped! C,6!ped-up! |!ped! C,6!ped-up! |!ped! B,,6!ped-up! |!ped! B,,6!ped-up! | %247
!ped! A,,4!ped-up!!ped! A,,2!ped-up! |!ped! (A,,4!ped-up!!ped! A,,2!ped-up! | %249
!ped! ^G,,4!ped-up!!ped! E,,2)!ped-up! | B,, z z2 z2 | %251
!ped! [E,G,]!ped-up! z!ped! G,!ped-up! z!ped! z2!ped-up! | %252
!ped! [G,B,]!ped-up! z!ped! z2!ped-up! z2 | %253
!ped! [D,F,]!ped-up! z!ped-up!!ped!!ped-up!!ped! z2!ped! z2!ped-up! | %254
!ped! [C,A,]4!ped-up!!ped! [C,G,]2!ped-up! |!ped! [B,,G,]6!ped-up! |!ped! [A,,G,]6!ped-up! | %257
!ped! [G,,D,]4!ped-up! z2 | [B,,F,]4 z2 | [G,,D,]2 z2 z2 | B,4 z2 | z6 | %262
 z2 z2!ped! [D,G,]!ped-up! z | [G,,D,] z !fermata!z2 z2 |][K:D][M:2/4] z4 | z4 | z4 | z4 | z4 | %269
 E,2 [A,,E,]2 | E,2 [A,,E,]2 |!<(! E,/E,/D,/!p!B,,/!<)!!<(! E,/E,/D,/!p!B,,/!<)! | %272
 E,/E,/D,/B,,/!p! [A,,E,]2 | z .[D,,A,,] z .[D,,A,,] | z .[D,,A,,] z .[D,,A,,] | %275
 z .[D,,A,,] z .[D,,A,,] | z .[D,,A,,] z .[F,,C,] | (^G,, F,,2 [E,,B,,]) | (^G,, F,,2 [E,,B,,]) | %279
 .[C,,^G,,].[F,,C,]/.[F,,C,]/ .[F,,C,].B,, | .[E,,B,,].A,, .E,,!pp!.A,,, | [A,,,A,,]4- | %282
 [A,,,A,,]4 | [A,,,A,,]4- | [A,,,A,,]4 | [A,,,A,,]4- | [A,,,A,,]4 | [A,,,A,,]4- | [A,,,A,,]4 | %289
 (D,2 .[A,,,A,,]) z | (D,2 .[A,,,A,,]) z | (D,2 .[A,,,A,,]) z | (D,2 .[A,,,A,,]) z | [A,,,A,,]4- | %294
 [A,,,A,,]4 | z .A,/.A,/ z .A,/.A,/ | z .A,/.A,/ z .A,/.A,/ | [D,,A,,]4 | [D,,A,,]4 | [D,,A,,]4 | %300
 [D,,A,,]4 | (E,2 A,,2) | (E,2 A,,2) | z2 !>![A,C]2 | !>![A,C]2 !>![A,C]2 | [D,A,] z [G,,D,] z | %306
 [D,,A,,] z z2 | z4 | z4 | z4 | z4 ||[K:G][M:3/8] G,,2 ^G,,- | G,,A,,D,, | =G,,2 ^G,,- | %314
 G,,A,,D,, | (G,, D,2) | (G,, D,2) | [A,,E,]3 | ([A,,E,]2 [D,A,]) | z (G,,^G,, | A,,2 D,,) | %321
 z (G,,^G,, | A,,2 D,,) |!<(! (A,G,G,/F,/ | A,G,/A,/_B,)!<)! |!mf! ([G,,D,]3 | [C,G,]3) | %327
!<(! (A,G,G,/F,/ | A,G,/A,/_B,)!<)! |!mf! ([G,,D,]3 | [C,G,]3) | (^D,,3 | E,,2 ^E,,) | %333
 (F,,2 ^^F,, | ^G,,3) | (A,,2 ^A,, | B,,2 ^B,,) | (^C,2 =D, | ^D,F,A,) | [^G,B,-]3 | [A,B,]3 | %341
 [^G,B,-]3 | [A,B,]3 | (^G,2 F, | E,3) |!ped! [A,,E,]3- | [A,,E,]3!ped-up! |!ped! [F,,^C,]3- | %348
 [F,,C,]3!ped-up! |!ped! [B,,,B,,]3- | [B,,,B,,]3!ped-up! |!ped! [B,,,B,,]3- | [B,,,B,,]3!ped-up! | %353
!ped! [E,,B,,]3- | [E,,B,,]3!ped-up! |!ped! [E,,B,,]3- | [E,,B,,]3!ped-up! | z3 | z3 | z3 | z3 | %361
 z!ped!!pp! G,,!ped-up! z |!ped! ^G,,!ped-up! z!ped! A,,!ped-up! | z =G,, z | ^G,, z A,, | %365
 (=G,, D,2) | (G,, D,2) | z3 | z3 | z3 ||[K:D][M:2/4] z4 | z4 | (E,>A,,) (E,>A,,) | %373
 (E,>A,,) E,!>!A,, |"^très rythmé" z4 | z4 | z4 | z4 | E,2 [A,,E,]2 | E,2 [A,,E,]2 | %380
!<(! E,/E,/D,/!p!B,,/!<)!!<(! E,/E,/D,/!p!B,,/!<)! | E,/E,/D,/B,,/!p! [A,,E,]2 | %382
 z .[D,,A,,] z .[D,,A,,] | z .[D,,A,,] z .[D,,A,,] | z .[D,,A,,] z .[D,,A,,] | %385
 z .[D,,A,,] z .[F,,C,] | (^G,, F,,2 [E,,B,,]) | (^G,, F,,2 [E,,B,,]) | %388
 .[C,,^G,,].[F,,C,]/.[F,,C,]/ .[F,,C,].B,, | .[E,,B,,].A,, .E,,!pp!.A,,, | [A,,,A,,]4- | %391
 [A,,,A,,]4 | [A,,,A,,]4- | [A,,,A,,]4 | [A,,,A,,]4- | [A,,,A,,]4 | [A,,,A,,]4- | [A,,,A,,]4 | %398
 (D,2 .[A,,,A,,]) z | (D,2 .[A,,,A,,]) z | (D,2 .[A,,,A,,]) z | (D,2 .[A,,,A,,]) z | [A,,,A,,]4- | %403
 [A,,,A,,]4 | z .A,/.A,/ z .A,/.A,/ | z .A,/.A,/ z .A,/.A,/ ||[M:3/8] [D,,A,,]3 | [D,,A,,]3 | %408
 [D,,A,,]3 | [D,,A,,]3 | [D,,A,,]3- | [D,,A,,]3 | [D,,A,,]3- | [D,,A,,]2 z | %414
!ped! [G,,D,]3-!ped-up! |!ped! [G,,D,]3!ped-up! |!ped! [G,,D,]3-!ped-up! |!ped! [G,,D,]3!ped-up! | %418
 [G,,D,]3!ped!!ped-up! | [G,,D,]3!ped!!ped-up! | [G,,D,]3!ped!!ped-up! | [G,,D,]3!ped!!ped-up! | %422
 [E,,E,]3 | [A,,,A,,]3 | [E,,E,]3 | [A,,,A,,]3 | [D,,A,,]2 [G,,D,] | [D,,A,,]2 [G,,D,] | %428
 [D,,A,,]2 [G,,D,] | [D,,A,,][D,,A,,] z | z [D,,A,,]2 | [D,,A,,]3- | [D,,A,,]2 !fermata!z |] %433
V:7
 G,,6 | E,,6 | G,,6 | E,,6 | D,,6 | D,6 | D,,6 | x6 | C,,6 | x6 | C,,6 | x6 | x6 | x6 | x6 | x6 | %16
 G,,6 | E,,6 | G,,6 | E,,6 | C,,6 | x6 | D,,6 | G,,6 | D,,6 | G,,6 | A,,,6 | x6 | C,3- C,.B,,.A,, | %29
 x6 ||[K:D] x6 | x6 | x6 | x6 | x6 | x6 | x6 | x6 | x6 | x6 | x6 | x6 | x6 | [B,,,F,,]2 z z2 z | %44
 x6 | x6 | x6 | x6 | x6 | x6 | x6 | x6 | x6 | x6 | x6 | x6 | x6 | x6 | x6 | x6 | x6 | x6 | x6 | %63
 x6 | x6 | x6 | x6 | x6 | x6 | x6 | x6 | x6 | x6 | x6 | x6 | x6 ||[K:G] x6 | x6 | x6 | x6 | x6 | %81
 x6 | x6 | x6 | C,,6 | x6 | C,,6 | x6 | x6 | x6 | x6 | x6 | x6 | x6 | x6 | x6 | x6 | x6 | x6 | x6 | %100
 x6 | x6 | x6 | x6 | x6 | x6 | x6 | x6 | x6 |][K:E][M:4/4] x8 | x8 | x8 | x8 | G,,4- | x4 | x8 | %116
 x8 | x8 | x8 | x8 | x8 | x8 | x8 | x8 | x8 | x8 | x8 | x8 | x4 | x4 | x8 | E,, z z2 x4 || %132
[K:A] x8 | x8 | x8 | x8 | x8 | x8 | x8 | x8 | x8 | x8 | x8 | x8 | x4 [=G,,,=G,,]3 G,, | %145
 x4 [B,,,B,,]3 z | x4 | x4 | x8 | x8 ||[K:Ab] x8 | x8 | x8 | x8 ||[K:E] x9 | x4 | x4 | x8 | x8 | %159
 G,,8 | x8 | x8 | G,,8 | x8 | x8 | x8 | x8 | x8 | x8 | x8 | E,,2 !>!D,,2 !>!C,,2 !>![B,,,B,,]2 | %171
 E,,2 !>!D,,2 !>!C,,2 !>![B,,,B,,]2 | [E,,B,,]4 [E,,B,,]4 | [E,,B,,]4 [E,,B,,]4 | x8 | %175
 .[E,,B,,] x x2 !fermata!x4 |][K:G][M:3/4] x6 | x6 | x6 | x6 | x6 | x6 | x6 | x6 | x7 | %185
 x2 x x7/8 x/8 x x7/8 x/8 | x2 x x7/8 x/8 x2 | x4 x x3/4 x/4 | x4 x x3/4 x/4 | x4 x x3/4 x/4 | x6 | %191
 x6 | x6 | x6 | x6 | x6 | x6 | x6 | x6 | x6 | x6 | x6 | x6 | x6 | x6 | x4 x3/2 x3/8 x/8 | %206
 x3/4 x3/16 x/16 x x3/4 x3/16 x/16 x x2 ||[K:D] x6 | x6 | x6 | x6 | x6 | x6 | x6 | x6 | x6 | x6 | %217
 x6 | x6 | x6 | x6 | x6 | x6 | x6 | x6 | x6 | x6 | x6 | x6 | x6 | x6 | x6 | x6 | x6 | x6 || %235
[K:G] x6 | x6 | x6 | x6 | G,,2 z2 D,,2 | G,,6 | G,,2 z2 D,,2 | G,,2 x2 x2 | x6 | x6 | x6 | x6 | %247
 x6 | x6 | x6 | x6 | !arpeggio!x/8!p! x3/8 x/ x x4 | !arpeggio!x/8 x3/8 x/ x x4 | %253
 !arpeggio!x/8 x3/8 x/ x x2 x2 | x6 | x6 | x6 | x6 | x6 | x6 | x6 | x6 | %262
 x4 !arpeggio!x/8 x3/8 x/ x | x6 |][K:D][M:2/4] x4 | x4 | x4 | x4 | x4 | x4 | x4 | x4 | x4 | x4 | %274
 x4 | x4 | x4 | x4 | x4 | x4 | x4 | x4 | x4 | x4 | x4 | x4 | x4 | x4 | x4 | x4 | x4 | x4 | x4 | %293
 x4 | x4 | x4 | x4 | x4 | x4 | x4 | x4 | x4 | x4 | x4 | x4 | x4 | x4 | x4 | x4 | x4 | x4 || %311
[K:G][M:3/8] x3 | x3 | x3 | x3 | x3 | x3 | x3 | x3 | x3 | x3 | x3 | x3 | B,,2 C, | ^C,2 D, | x3 | %326
 x3 | B,,2 C, | ^C,2 D, | x3 | x3 | x3 | x3 | x3 | x3 | x3 | x3 | x3 | x3 | x3 | x3 | x3 | x3 | %343
 x3 | x3 | x3 | x3 | x3 | x3 | x3 | x3 | x3 | x3 | x3 | x3 | x3 | x3 | x3 | x3 | x3 | x3 | x3 | %362
 x3 | x3 | x3 | x3 | x3 | x3 | x3 | x3 ||[K:D][M:2/4] x4 | x4 | x4 | x4 | x4 | x4 | x4 | x4 | x4 | %379
 x4 | x4 | x4 | x4 | x4 | x4 | x4 | x4 | x4 | x4 | x4 | x4 | x4 | x4 | x4 | x4 | x4 | x4 | x4 | %398
 x4 | x4 | x4 | x4 | x4 | x4 | x4 | x4 ||[M:3/8] x3 | x3 | x3 | x3 | x3 | x3 | x3 | x3 | x3 | x3 | %416
 x3 | x3 | x3 | x3 | x3 | x3 | x3 | x3 | x3 | x3 | x3 | x3 | x3 | x3 | x3 | x3 | x3 |] %433
V:8
 x6 | x6 | x6 | x6 |[K:bass] x6 |[K:treble] x6 |[K:bass] x6 |[K:treble] x6 | x6 | x6 | x6 | %11
 x2 x A,3 |[K:bass] x6 | x6 | x6 | x6 |[K:treble] x6 | x6 | x6 | x6 |[K:bass] x6 | x6 | %22
[K:treble] x6 | x6 | x6 | x6 |[K:bass] x3[K:treble] x3 | x6 |[K:bass] x3 x2 x3/4 x/4- | x6 || %30
[K:D] x6 | x6 | x6 | x6 | x6 | x6 | x6 | x6 |[K:treble] x6 | x6 | x6 | x6 | x6 | %43
 x3/2[K:bass] x9/2 | x6 | x6 | x6 | x6 | x6 | x6 | x6 | x6 | x6 | x6 |[K:treble] x6 | x6 | x6 | %57
 x6 | [B,D]6- | [B,D]6 | x6 |[K:bass] x6 | x6 | x6 | x6 | x6 | x6 | x6 |[K:treble] x6 | x6 | %70
[K:bass] x6 | x6 |[K:treble] x6 | x6 | x6 | C6 ||[K:G] x6 | x6 | x6 | x6 | x9/2[K:bass] x3/2 | %81
 x9/2[K:treble] x3/2 | x9/2[K:bass] x3/2 |[K:treble] x6 | x6 | x2 x A,3 | x6 | x2 x A,3 | %88
[K:bass] x6 | x6 | x6 | x6 | x6 | x6 | x6 | x6 | E,6- | E,6 | x6 | x6 | x6 | x6 | x6 | x6 | x6 | %105
 x6 | x6 | x6 | x6 |][K:E][M:4/4][K:treble] x8 | x8 | x8 | x8 |[K:bass] x4 | x4 | x8 | %116
[K:treble] x8 | x8 | x8 | x8 | x8 | x8 | x8 | x8 | x8 |[K:bass] x8 | x8 | A,8 | x4 | x4 | %130
 x6 !>![G,B,]!>![F,A,] | [G,B,] z z2 x4 ||[K:A] x2 E,6 | x8 | x2 E,6 | x8 | %136
[K:treble] x3/2 (3x/4x/4x/4 x2 x4 | x3/2 (3x/4x/4x/4 x2 x4 | B,2 C2 B,2 C2 | %139
 B,2 [A,B,^D]2 x4[K:bass] |[K:treble] x8 | x8 | x8 | x8 | %144
 x !arpeggio!x/4 x/4 x/ !arpeggio!x/4 x/4 x/ x x !arpeggio!x/4 x/4 x/ !arpeggio!x/4 x/4 x/ x | %145
 x !arpeggio!x/4 x/4 x/ !arpeggio!x/4 x/4 x/ x x !arpeggio!x/4 x/4 x/ !arpeggio!x/4 x/4 x/ x | %146
 x !arpeggio!x/4 x/4 x/ !arpeggio!x/4 x/4 x/ x | x4 | %148
 x !arpeggio!x/4 x/4 x/ !arpeggio!x/4 x/4 x/ x x4 | x8 ||[K:Ab] x8 | x8 | x2{/E} x x x4 | %153
{/E} x x x2 x4 ||[K:E][K:treble] x x x3/4 x/4 x2 x4 | A, z A, z | A, z A, z | x x3/4 x/4 x2 x4 | %158
 !arpeggio!x/4 x3/4 x x2 !arpeggio!x/4 x3/4 x x2 |[K:bass] x8 | x8 |[K:treble] x8 | x8 | x8 | x8 | %165
 x8 | x8 | x8 | x8 | x8 | x3/4 x/4 x2 x x4 | x3/4 x/4 x2 x x4 | x8 | x8 | x8 | x8 |] %176
[K:G][M:3/4] x6 | x6 | x6 | x6 | x6 | x6 | x6 | x6 | x x2 x x3/4 x/8x/8 x x7/8 x/8 | %185
 x2 x x7/8 x/8 x x7/8 x/8 | x2 x x7/8 x/8 x x3/4 x/8x/8 | x4 x x3/4 x/8x/8 | x4 x x3/4 x/8x/8 | %189
 x4 x x3/4 x/8x/8 | x6 | x6 | (B/A/G/A/ BABG) | (A/G/F/G/ AGAF) | (A/G/F/G/ AGAF) | %195
 (G/F/E/F/ GFGE) | (G/!<(!F/E/F/ GE ^DF)!<)! | (G/!<(!F/E/F/ GE ^DF)!<)! | x6 | x6 |[K:bass] x6 | %201
 x6 | x6 | x6 | x4 x x7/8 x/8 |[K:treble] x2 x3/2 x3/8 x/8 x3/2 x3/8 x/8 | %206
 x3/4 x3/16 x/16 x x3/4 x3/16 x/16 x x2 ||[K:D][K:bass] x4 G, z | F, z z2 F, z | F,2 E,2 G,2- | %210
 G,F,- F,A,- A,!p!D | x6 | x6 | z2 (G,2- G,F,) | (E,2 G,2- G,F,) | x6 | %216
 (6:4:6x/x/x/x/x/x/ (5:3:5x/x/x/x/x/ x/ x2 | x6 | %218
 (6:4:6x/x/!>(!x/x/x/x/ (5:3:5x/x/x/x/x/ x/ x2!>)! | x6 | x6 | x6 | x6 | %223
[K:treble] !arpeggio!x/8 x3/8 x/ x x2 !arpeggio!x/8 x3/8 x/ x | %224
 !arpeggio!x/8 x3/8 x/ x x2 !arpeggio!x/8 x3/8 x/ x | [G,B,]2 [B,D]2 [CG]2 | [G,B,]2 [B,D]2 [CG]2 | %227
 x6 | x6 | x6 | x6 | x6 | x6 | x6 | x6 ||[K:G] x6 | x6 | (D/B,/G,/B,/) (G/D/B,/D/) (=F/D/A,/D/) | %238
 (E/C/A,/C/) (E/C/A,/C/) (E/C/A,/E/) | (E/C/A,/C/) (A/C/A,/C/) (F/C/A,/C/) | %240
 (D/B,/G,/B,/) (G/B,/G,/B,/) (E/B,/G,/B,/) | (E/C/A,/C/) (A/C/A,/C/) (F/C/A,/C/) | x6 | %243
[K:bass] (B,/A,/G,/A,/ B,A, B,G,) | (A,/G,/F,/G,/ A,G, A,F,) | (A,/G,/F,/G,/ A,G, A,F,) | %246
 (G,/F,/E,/F,/ G,F, G,E,) | x6 | x6 | x6 | x6 | %251
[K:treble] !arpeggio!x/8 x3/8 x/ x !arpeggio!x/8 x3/8 x/ x !arpeggio!x/8 x3/8 x/ x | %252
 !arpeggio!x/8 x3/8 x/ x !arpeggio!x/8 x3/8 x/ x x2 | %253
 !arpeggio!x/8 x3/8 x/ x x2 !arpeggio!x/8 x3/8 x/ x | D4 C2 | x6 | x6 | x6 | x6 | x6 | x6 | x6 | %262
 x4 !arpeggio!x/8 x3/8 x/ x | x6 |][K:D][M:2/4] x4 | x4 | x4 | x4 | x4 | x4 | x4 | x4 | x4 | x4 | %274
 x4 | x4 | x4 |[K:bass] x4 | x4 | x4 | x4 | x4 | x4 | x4 | x4 | x4 | x4 | x4 | x4 | x4 | x4 | x4 | %292
 x4 |[K:treble] x4 | x4 | x4 | x4 | x4 | x4 | [CF]2 [B,E]2 | [A,D]2 [A,C]2 | [B,D]2 [G,B,]2 | %302
 [B,D]2 [G,B,]2 | x4 | x4 | x4 | x4 | x4 | x4 | x4 | x4 ||[K:G][M:3/8][K:bass] x3 | x3 | x3 | x3 | %315
[K:treble] x3 | x3 | x3 | x3 | z [=F,B,]2 | z [^F,C]2 | z [=F,B,]2 | z [^F,C]2 | x3 | x3 | %325
 (=B,2 A, | B,DC) | x3 | x3 | (=B,2 A, | B,DC) |[K:bass] B,,"_soutenu sans lourdeur" B,,2 | B,,3 | %333
 B,,3 | x3 | E, E,2 | E,3 | A,3 | x3 |[K:treble] x3 | ^D3 | x3 | ^D3 |[K:bass] x3 | A,3 | %345
 (B,/A,/F,/A,/B,/A,/ | F,/A,/B,/A,/F,/A,/) | (B,/A,/F,/A,/B,/A,/ | F,/A,/B,/A,/F,/A,/) | x3 | x3 | %351
 x3 | x3 | x3 | x3 | x3 | x3 |[K:treble] x3 | x3 | x3 | x3 | x !arpeggio!x/8 x3/8 x/ x | %362
 !arpeggio!x/8 x3/8 x/ x2 | x3 | x3 | x3 | x3 | x3 | x3 | x3 ||[K:D][M:2/4] x4 |[K:bass] x4 | %372
 (B,>G,) (B,>G,) | (B,>G,) B,!mf!!>!A, |[K:treble] x4 | x4 | x4 | x4 | x4 | x4 | x4 | x4 | x4 | %383
 x4 | x4 | x4 |[K:bass] x4 | x4 | x4 | x4 | x4 | x4 | x4 | x4 | x4 | x4 | x4 | x4 | x4 | x4 | x4 | %401
 x4 |[K:treble] x4 | x4 | x4 | x4 ||[M:3/8] [^F,A,]3 | [G,C]3 | [F,A,]3 | [G,C]3 | x3 | x3 | %412
[K:bass] x3 | x3 |[K:treble] B,3 | =C3 | B,3 | =C3 |[K:bass] x !arpeggio!x/8 x3/8 x/ x | %419
 x !arpeggio!x/8 x3/8 x/ x | x !arpeggio!x/8 x3/8 x/ x | x !arpeggio!x/8 x3/8 x/ x | x3 | x3 | x3 | %425
 x3 | x3 | x3 | x3 | x3 | x3 | x3 | x3 |] %433

